!!!!SEGMENT: pl-wtm--r-1543--006_stefani-jozef--msza-in-f-sanctus.krn
!!!cenid: 18xx:1790
!!!COM: Stefani, Józef
!!!COM-rismid: pe30024097
!!!CDT: 1800/04/16-1876/03/19
!!!CNT: Polish
!!!OPR: Msza in F
!!!OTL: Sanctus
!!!OMV: 006
!!!PDT:
!!!AGN: Sacred; Mass
!!!SMS-siglum: PL-Wtm
!!!SMS-shelfmark: R 1543
!!!SMS-shelfwork: 001-006 M
!!!SMS-variant:
!!!SMS-altvar:
!!!NIFC-rismid: 1001120491
!!!OMD: Adagio.
!!!system-decoration: {(s1,s2,s3)}{(s4,s5,s6)}{(s7,s8)}[(s9)]{(s10,s11)}[(s12)][(s13)]{(s14,s15,s16,s17)}{(s18,s19)}
!!!key:
**kern	**kern	**kern	**text	**dynam	**kern	**kern	**dynam	**kern	**text	**dynam	**kern	**dynam	**kern	**dynam	**kern	**dynam	**kern	**dynam	**kern	**dynam	**kern	**dynam	**kern	**dynam	**kern	**dynam	**kern	**dynam	**kern	**dynam	**kern	**dynam	**kern	**dynam	**kern	**dynam
*part18	*part18	*part17	*part17	*part17	*part16	*part15	*part15	*part14	*part14	*part14	*part13	*part13	*part12	*part12	*part11	*part11	*part10	*part10	*part9	*part9	*part8	*part8	*part7	*part7	*part6	*part6	*part5	*part5	*part4	*part4	*part3	*part3	*part2	*part2	*part1	*part1
*staff19	*staff18	*staff17	*staff17	*	*staff16	*staff15	*	*staff14	*staff14	*	*staff13	*	*staff12	*	*staff11	*	*staff10	*	*staff9	*	*staff8	*	*staff7	*	*staff6	*	*staff5	*	*staff4	*	*staff3	*	*staff2	*	*staff1	*
*Iempty	*Iorgan	*Ibass	*	*	*Itenor	*Ialto	*	*Isoprn	*	*	*Itimpa	*	*Ifagot	*	*Iempty	*	*Iserp	*	*Itromp	*	*Icor	*	*Icor	*	*Iclars	*	*Iclars	*	*Iclars	*	*Iclars	*	*Ioboe	*	*Iflt	*
*	*I"Organo	*I"Basso	*	*	*I"Tenore	*I"Alto	*	*I"Soprano	*	*	*I"Timpani	*	*I"Fagotti	*	*	*	*I"Tromboni et Serpent	*	*I"Trombe in C.	*	*I"Corni in F.	*	*I"Corni in C.	*	*I"Clarinetto 2do	*	*I"Clarinetto 1mo in C	*	*I"Clarinetto in C. Obligato	*	*I"Petit Clarinet in F.	*	*I"Oboe	*	*I"Flauto	*
*I'org	*	*I'B	*	*	*I'T	*I'A	*	*I'S	*	*	*I'timp	*	*I'fag	*	*I'serpentone	*	*I'trb	*	*I'tr in C	*	*I'cor	*	*I'cor in C.	*	*I'cl 2 in C	*	*I'cl 1 in C	*	*I'cl in C obl	*	*I'cl in F	*	*I'ob	*	*I'fl	*
*clefF4	*clefG2	*clefF4	*	*	*clefC4	*clefG2	*	*clefG2	*	*	*clefF4	*	*clefF4	*	*clefF4	*	*clefC4	*	*clefG2	*	*clefG2	*	*clefG2	*	*clefG2	*	*clefG2	*	*clefG2	*	*clefG2	*	*clefG2	*	*clefG2	*
*	*	*	*	*	*	*	*	*	*	*	*	*	*	*	*	*	*	*	*	*	*ITrd4c7	*	*ITrd6c10	*	*	*	*	*	*	*	*ITrd-3c-5	*	*	*	*	*
*k[b-]	*k[b-]	*k[b-]	*	*	*k[b-]	*k[b-]	*	*k[b-]	*	*	*k[b-]	*	*k[b-]	*	*k[b-]	*	*k[b-]	*	*k[b-]	*	*k[b-]	*	*k[f#c#]	*	*k[b-]	*	*k[b-]	*	*k[b-]	*	*k[b-]	*	*k[b-]	*	*k[b-]	*
*F:	*F:	*F:	*	*	*F:	*F:	*	*F:	*	*	*F:	*	*F:	*	*F:	*	*F:	*	*F:	*	*F:	*	*F:	*	*F:	*	*F:	*	*F:	*	*F:	*	*F:	*	*F:	*
*M4/4	*M4/4	*M4/4	*	*	*M4/4	*M4/4	*	*M4/4	*	*	*M4/4	*	*M4/4	*	*M4/4	*	*M4/4	*	*M4/4	*	*M4/4	*	*M4/4	*	*M4/4	*	*M4/4	*	*M4/4	*	*M4/4	*	*M4/4	*	*M4/4	*
*met(c)	*met(c)	*met(c)	*	*	*met(c)	*met(c)	*	*met(c)	*	*	*met(c)	*	*met(c)	*	*met(c)	*	*met(c)	*	*met(c)	*	*met(c)	*	*met(c)	*	*met(c)	*	*met(c)	*	*met(c)	*	*met(c)	*	*met(c)	*	*met(c)	*
*>[A,B,C]	*>[A,B,C]	*>[A,B,C]	*	*	*>[A,B,C]	*>[A,B,C]	*	*>[A,B,C]	*	*	*>[A,B,C]	*	*>[A,B,C]	*	*>[A,B,C]	*	*>[A,B,C]	*	*>[A,B,C]	*	*>[A,B,C]	*	*>[A,B,C]	*	*>[A,B,C]	*	*>[A,B,C]	*	*>[A,B,C]	*	*>[A,B,C]	*	*>[A,B,C]	*	*>[A,B,C]	*
=1	=1	=1	=1	=1	=1	=1	=1	=1	=1	=1	=1	=1	=1	=1	=1	=1	=1	=1	=1	=1	=1	=1	=1	=1	=1	=1	=1	=1	=1	=1	=1	=1	=1	=1	=1	=1
*>A	*>A	*>A	*	*	*>A	*>A	*	*>A	*	*	*>A	*	*>A	*	*>A	*	*>A	*	*>A	*	*>A	*	*>A	*	*>A	*	*>A	*	*>A	*	*>A	*	*>A	*	*>A	*
*	*	*	*	*	*	*	*	*	*	*	*	*	*	*	*	*	*	*	*^	*	*	*	*	*	*	*	*	*	*	*	*	*	*	*	*	*
*	*2\right	*	*	*	*	*	*	*	*	*	*	*	*	*	*	*	*	*	*2\right	*	*	*	*	*	*	*	*	*2\right	*	*2\right	*	*	*	*	*	*	*
!LO:TX:t=P:problem:all\right:global	!LO:TX:t=P:problem:all\right:global	!	!	!	!	!	!	!	!	!	!	!	!	!	!	!	!	!	!	!	!	!	!	!	!	!	!	!	!	!	!	!	!	!	!	!	!
!	!	!LO:TX:t=P:problem:all\right:global	!	!	!LO:TX:t=P:problem:all\right:global	!LO:TX:t=P:problem:all\right:global	!	!LO:TX:t=P:problem:all\right:global	!	!	!	!	!	!	!	!	!	!	!	!	!	!	!	!	!	!	!	!	!	!	!	!	!	!	!	!	!
!	!	!	!	!	!	!	!	!	!	!	!	!	!	!	!	!	!	!	!	!	!	!	!	!	!	!	!	!	!	!	!	!LO:TX:t=P:problem:all\right:global	!	!LO:TX:t=P:problem:all\right:global	!	!LO:TX:t=P:problem:all\right:global	!
!	!	!	!	!	!	!	!	!	!	!	!	!	!	!	!	!	!	!	!	!	!	!	!	!	!	!LO:TX:t=P:problem:all\right:global	!	!LO:TX:t=P:problem:all\right:global	!	!LO:TX:t=P:problem:all\right:global	!	!	!	!	!	!	!
!	!	!	!	!	!	!	!	!	!	!	!	!	!	!	!	!	!	!	!	!LO:TX:t=P:problem:all\right:global	!	!LO:TX:t=P:problem:all\right:global	!	!LO:TX:t=P:problem:all\right:global	!	!	!	!	!	!	!	!	!	!	!	!	!
!	!	!	!	!	!	!	!	!	!	!	!LO:TX:t=P:problem:all\right:global	!	!LO:TX:t=P:problem:all\right:global	!	!LO:TX:t=P:problem:all\right:global	!	!LO:TX:t=P:problem:all\right:global	!	!	!	!	!	!	!	!	!	!	!	!	!	!	!	!	!	!	!	!
!	!	!	!	!	!	!	!	!	!	!	!	!	!	!	!	!	!	!	!	!	!	!	!	!LO:TX:t=P:problem:rzeczywisty strój: D, brak znaków przykluczowych	!	!	!	!LO:TX:a:Bi:t=Col. Clar. Obl.	!	!	!	!	!	!	!	!	!
!	!	!	!	!	!	!	!	!	!	!	!	!	!	!	!	!	!	!	!	!LO:TX:a:t=P:pause position:problem	!	!	!	!	!	!	!	!	!	!	!	!	!	!	!	!	!
1r	2r	1r	.	.	1r	1r	.	1r	.	.	1r	.	1r	.	1r	.	1r	.	2r	1re	.	1r	.	1r	.	1r	.	2ryy	.	2r	.	1r	.	1r	.	1r	.
.	16r	.	.	.	.	.	.	.	.	.	.	.	.	.	.	.	.	.	16r	.	.	.	.	.	.	.	.	16ryy	.	16r	.	.	.	.	.	.	.
!	!	!	!	!	!	!	!	!	!	!	!	!	!	!	!	!	!	!	!LO:TX:a:Bi:t=Io.	!	!	!	!	!	!	!	!	!	!	!	!	!	!	!	!	!	!
.	(<16c/LL	.	.	.	.	.	.	.	.	.	.	.	.	.	.	.	.	.	16c'</LL	.	.	.	.	.	.	.	.	16c'</LLyy	.	16c'</LL	.	.	.	.	.	.	.
.	16d/	.	.	.	.	.	.	.	.	.	.	.	.	.	.	.	.	.	16d'</	.	.	.	.	.	.	.	.	16d'</yy	.	16d'</	.	.	.	.	.	.	.
.	16e/JJ	.	.	.	.	.	.	.	.	.	.	.	.	.	.	.	.	.	16e'</JJ	.	.	.	.	.	.	.	.	16e'</JJyy	.	16e'</JJ	.	.	.	.	.	.	.
.	8f/L	.	.	.	.	.	.	.	.	.	.	.	.	.	.	.	.	.	8f'</L	.	.	.	.	.	.	.	.	8f'</Lyy	.	8f'</L	.	.	.	.	.	.	.
.	8g/J)	.	.	.	.	.	.	.	.	.	.	.	.	.	.	.	.	.	8g'</J	.	.	.	.	.	.	.	.	8g'</Jyy	.	8g'</J	.	.	.	.	.	.	.
=2	=2	=2	=2	=2	=2	=2	=2	=2	=2	=2	=2	=2	=2	=2	=2	=2	=2	=2	=2	=2	=2	=2	=2	=2	=2	=2	=2	=2	=2	=2	=2	=2	=2	=2	=2	=2	=2
*	*	*	*	*	*	*	*	*	*	*	*	*	*	*	*	*	*^	*	*	*	*	*	*	*^	*	*	*	*	*	*	*	*	*	*^	*	*	*
*2\right	*	*2\right	*	*	*2\right	*2\right	*	*2\right	*	*	*2\right	*	*2\right	*	*2\right	*	*2\right	*2\right	*	*	*2\right	*	*2\right	*	*2\right	*2\right	*	*2\right	*	*	*	*	*	*2\right	*	*2\right	*2\right	*	*2\right	*
*	*	*	*	*	*	*	*	*	*	*	*tremolo	*	*	*	*	*	*	*	*	*	*	*	*	*	*	*	*	*	*	*	*	*	*	*	*	*	*	*	*	*
!	!	!	!	!LO:HP:a	!	!	!	!	!	!	!	!	!	!	!	!	!	!	!	!	!	!LO:HP:a	!	!	!	!	!	!	!	!	!	!	!	!	!	!	!	!	!	!
!	!	!	!	!LO:DY:b:rj	!	!	!	!	!	!LO:DY:b:rj	!	!LO:DY:b:rj	!	!LO:DY:b:rj	!	!	!	!	!LO:DY:b:rj	!	!	!LO:DY:b:rj	!	!	!	!	!LO:DY:b:rj	!	!	!	!	!	!	!	!LO:DY:b:rj	!	!	!	!	!LO:DY:b:rj
4FF/	1a 1f 1c	1F	Świę-	p <	(>1c	1f	.	1a	Świę-	p	32F\LLL	p <	4FF/	p <	[>1F	<	(>1c	[<1A	p	1a	1f	p <	[>1f [<1c	.	[<1A	1A	p <	(<1f	<	(<1ayy	<	(<1a	<	(>1ccc	p <	(>1ff	(>1cc	.	(>1aa	p <
.	.	.	.	.	.	.	.	.	.	.	32F\	.	.	.	.	.	.	.	.	.	.	.	.	.	.	.	.	.	.	.	.	.	.	.	.	.	.	.	.	.
.	.	.	.	.	.	.	.	.	.	.	32F\	.	.	.	.	.	.	.	.	.	.	.	.	.	.	.	.	.	.	.	.	.	.	.	.	.	.	.	.	.
.	.	.	.	.	.	.	.	.	.	.	32F\	.	.	.	.	.	.	.	.	.	.	.	.	.	.	.	.	.	.	.	.	.	.	.	.	.	.	.	.	.
.	.	.	.	.	.	.	.	.	.	.	32F\	.	.	.	.	.	.	.	.	.	.	.	.	.	.	.	.	.	.	.	.	.	.	.	.	.	.	.	.	.
.	.	.	.	.	.	.	.	.	.	.	32F\	.	.	.	.	.	.	.	.	.	.	.	.	.	.	.	.	.	.	.	.	.	.	.	.	.	.	.	.	.
.	.	.	.	.	.	.	.	.	.	.	32F\	.	.	.	.	.	.	.	.	.	.	.	.	.	.	.	.	.	.	.	.	.	.	.	.	.	.	.	.	.
.	.	.	.	.	.	.	.	.	.	.	32F\	.	.	.	.	.	.	.	.	.	.	.	.	.	.	.	.	.	.	.	.	.	.	.	.	.	.	.	.	.
4AA/	.	.	.	.	.	.	.	.	.	.	32F\	.	4AA/	.	.	.	.	.	.	.	.	.	.	.	.	.	.	.	.	.	.	.	.	.	.	.	.	.	.	.
.	.	.	.	.	.	.	.	.	.	.	32F\	.	.	.	.	.	.	.	.	.	.	.	.	.	.	.	.	.	.	.	.	.	.	.	.	.	.	.	.	.
.	.	.	.	.	.	.	.	.	.	.	32F\	.	.	.	.	.	.	.	.	.	.	.	.	.	.	.	.	.	.	.	.	.	.	.	.	.	.	.	.	.
.	.	.	.	.	.	.	.	.	.	.	32F\	.	.	.	.	.	.	.	.	.	.	.	.	.	.	.	.	.	.	.	.	.	.	.	.	.	.	.	.	.
.	.	.	.	.	.	.	.	.	.	.	32F\	.	.	.	.	.	.	.	.	.	.	.	.	.	.	.	.	.	.	.	.	.	.	.	.	.	.	.	.	.
.	.	.	.	.	.	.	.	.	.	.	32F\	.	.	.	.	.	.	.	.	.	.	.	.	.	.	.	.	.	.	.	.	.	.	.	.	.	.	.	.	.
.	.	.	.	.	.	.	.	.	.	.	32F\	.	.	.	.	.	.	.	.	.	.	.	.	.	.	.	.	.	.	.	.	.	.	.	.	.	.	.	.	.
.	.	.	.	[	.	.	.	.	.	.	32F\	[	.	[	.	[	.	.	.	.	.	[	.	.	.	.	[	.	[	.	[	.	[	.	[	.	.	.	.	[
!	!	!	!	!	!	!	!	!	!	!	!	!	!	!	!	!	!	!	!	!	!	!LO:HP:a	!	!	!	!	!	!	!	!	!	!	!	!	!	!	!	!	!	!
4C/	.	.	.	>	.	.	.	.	.	.	32F\	>	4C/	>	.	>	.	.	.	.	.	>	.	.	.	.	>	.	>	.	>	.	>	.	>	.	.	.	.	>
.	.	.	.	.	.	.	.	.	.	.	32F\	.	.	.	.	.	.	.	.	.	.	.	.	.	.	.	.	.	.	.	.	.	.	.	.	.	.	.	.	.
.	.	.	.	.	.	.	.	.	.	.	32F\	.	.	.	.	.	.	.	.	.	.	.	.	.	.	.	.	.	.	.	.	.	.	.	.	.	.	.	.	.
.	.	.	.	.	.	.	.	.	.	.	32F\	.	.	.	.	.	.	.	.	.	.	.	.	.	.	.	.	.	.	.	.	.	.	.	.	.	.	.	.	.
.	.	.	.	.	.	.	.	.	.	.	32F\	.	.	.	.	.	.	.	.	.	.	.	.	.	.	.	.	.	.	.	.	.	.	.	.	.	.	.	.	.
.	.	.	.	.	.	.	.	.	.	.	32F\	.	.	.	.	.	.	.	.	.	.	.	.	.	.	.	.	.	.	.	.	.	.	.	.	.	.	.	.	.
.	.	.	.	.	.	.	.	.	.	.	32F\	.	.	.	.	.	.	.	.	.	.	.	.	.	.	.	.	.	.	.	.	.	.	.	.	.	.	.	.	.
.	.	.	.	.	.	.	.	.	.	.	32F\	.	.	.	.	.	.	.	.	.	.	.	.	.	.	.	.	.	.	.	.	.	.	.	.	.	.	.	.	.
4F\	.	.	.	.	.	.	.	.	.	.	32F\	.	4F\	.	.	.	.	.	.	.	.	.	.	.	.	.	.	.	.	.	.	.	.	.	.	.	.	.	.	.
.	.	.	.	.	.	.	.	.	.	.	32F\	.	.	.	.	.	.	.	.	.	.	.	.	.	.	.	.	.	.	.	.	.	.	.	.	.	.	.	.	.
.	.	.	.	.	.	.	.	.	.	.	32F\	.	.	.	.	.	.	.	.	.	.	.	.	.	.	.	.	.	.	.	.	.	.	.	.	.	.	.	.	.
.	.	.	.	.	.	.	.	.	.	.	32F\	.	.	.	.	.	.	.	.	.	.	.	.	.	.	.	.	.	.	.	.	.	.	.	.	.	.	.	.	.
.	.	.	.	.	.	.	.	.	.	.	32F\	.	.	.	.	.	.	.	.	.	.	.	.	.	.	.	.	.	.	.	.	.	.	.	.	.	.	.	.	.
.	.	.	.	.	.	.	.	.	.	.	32F\	.	.	.	.	.	.	.	.	.	.	.	.	.	.	.	.	.	.	.	.	.	.	.	.	.	.	.	.	.
.	.	.	.	.	.	.	.	.	.	.	32F\	.	.	.	.	.	.	.	.	.	.	.	.	.	.	.	.	.	.	.	.	.	.	.	.	.	.	.	.	.
.	.	.	.	]	.	.	.	.	.	.	32F\JJJ	.	.	]	.	]]	.	.	.	.	.	]	.	.	.	.	]	.	]	.	]	.	]	.	]	.	.	.	.	]
*	*	*	*	*	*	*	*	*	*	*	*Xtremolo	*	*	*	*	*	*	*	*	*	*	*	*	*	*	*	*	*	*	*	*	*	*	*	*	*	*	*	*	*
*	*	*	*	*	*	*	*	*	*	*	*	*	*	*	*	*	*v	*v	*	*	*	*	*	*	*v	*v	*	*	*	*	*	*	*	*	*	*	*	*	*	*
*	*	*	*	*	*	*	*	*	*	*	*	*	*	*	*	*	*	*	*v	*v	*	*	*	*	*	*	*	*	*	*	*	*	*	*	*	*	*	*
=3	=3	=3	=3	=3	=3	=3	=3	=3	=3	=3	=3	=3	=3	=3	=3	=3	=3	=3	=3	=3	=3	=3	=3	=3	=3	=3	=3	=3	=3	=3	=3	=3	=3	=3	=3	=3	=3
4FF/	4f 4c 4A/	4F\	-ty!	.	4A\)	4c/	.	4f/	-ty!	.	4F\	]	4FF/	.	4F\]	.	4f 4A\])	.	4f 4c/	.	4f] 4c/]	.	4A/]	.	4c/)	.	4f/)yy	.	4f/)	.	4aa\)	.	4cc/)	4a\)	.	4ff\)	.
4r	8.ccL 8.a/	4r	.	.	4r	4r	.	4r	.	.	4r	.	4r	.	4r	.	4r	.	4r	.	4r	.	4r	.	(<8.a/L	.	(>8.cc\Lyy	.	(>8.cc\L	.	4r	.	(>8.aaL 8.cc\	4ryy	.	4r	.
.	32ddLL 32b-/	.	.	.	.	.	.	.	.	.	.	.	.	.	.	.	.	.	.	.	.	.	.	.	32b-/LL	.	32dd\LLyy	.	32dd\LL	.	.	.	32bb-LL 32dd\	.	.	.	.
.	32ccJJJ 32a/	.	.	.	.	.	.	.	.	.	.	.	.	.	.	.	.	.	.	.	.	.	.	.	32a/JJJ	.	32cc\JJJyy	.	32cc\JJJ	.	.	.	32aaJJJ 32cc\	.	.	.	.
2r	8b-L 8g/	2r	.	.	2r	2r	.	2r	.	.	2r	.	2r	.	2r	.	2r	.	2r	.	2r	.	2r	.	8g/L)	.	8b-/L)yy	.	8b-/L)	.	2r	.	8ggL 8b-\)	4ryy	.	2r	.
.	8a 8f/	.	.	.	.	.	.	.	.	.	.	.	.	.	.	.	.	.	.	.	.	.	.	.	8f'</	.	8a'</yy	.	8a'</	.	.	.	8ff 8a'>\	.	.	.	.
.	8g 8e/	.	.	.	.	.	.	.	.	.	.	.	.	.	.	.	.	.	.	.	.	.	.	.	8e'</	.	8g'</yy	.	8g'</	.	.	.	8ee 8g'>\	4ryy	.	.	.
.	8aJ 8f/	.	.	.	.	.	.	.	.	.	.	.	.	.	.	.	.	.	.	.	.	.	.	.	8f'</J	.	8a'</Jyy	.	8a'</J	.	.	.	8ffJ 8a'>\	.	.	.	.
=4	=4	=4	=4	=4	=4	=4	=4	=4	=4	=4	=4	=4	=4	=4	=4	=4	=4	=4	=4	=4	=4	=4	=4	=4	=4	=4	=4	=4	=4	=4	=4	=4	=4	=4	=4	=4	=4
*	*	*	*	*	*	*	*	*	*	*	*	*	*	*	*	*	*	*	*	*	*	*	*^	*	*	*	*	*	*	*	*	*	*	*	*	*	*
*	*	*	*	*	*	*	*	*	*	*	*tremolo	*	*	*	*	*	*	*	*	*	*	*	*	*	*	*	*	*	*	*	*	*	*	*	*	*	*	*
!	!	!	!	!	!	!	!	!	!	!	!	!	!	!	!	!	!	!	!	!LO:HP:a	!	!	!	!	!	!	!LO:HP:a	!	!LO:HP:a	!	!LO:HP:a	!	!	!	!	!	!	!
4C/	1b- 1g 1e	1C	Świę-	<	1e	1g	.	1b-	Świę-	.	32C/LLL	<	4C\	<	[<1C	.	[>1e [>1B-	<	(>1b- 1e	<	[>1g [>1c	.	[>1e	1e	<	1g	<	(<1b-yy	<	(<1b-	<	(>1gg	.	(>1gg	4b-\	.	(>1bb-	<
.	.	.	.	.	.	.	.	.	.	.	32C/	.	.	.	.	.	.	.	.	.	.	.	.	.	.	.	.	.	.	.	.	.	.	.	.	.	.	.
.	.	.	.	.	.	.	.	.	.	.	32C/	.	.	.	.	.	.	.	.	.	.	.	.	.	.	.	.	.	.	.	.	.	.	.	.	.	.	.
.	.	.	.	.	.	.	.	.	.	.	32C/	.	.	.	.	.	.	.	.	.	.	.	.	.	.	.	.	.	.	.	.	.	.	.	.	.	.	.
.	.	.	.	.	.	.	.	.	.	.	32C/	.	.	.	.	.	.	.	.	.	.	.	.	.	.	.	.	.	.	.	.	.	.	.	.	.	.	.
.	.	.	.	.	.	.	.	.	.	.	32C/	.	.	.	.	.	.	.	.	.	.	.	.	.	.	.	.	.	.	.	.	.	.	.	.	.	.	.
.	.	.	.	.	.	.	.	.	.	.	32C/	.	.	.	.	.	.	.	.	.	.	.	.	.	.	.	.	.	.	.	.	.	.	.	.	.	.	.
.	.	.	.	.	.	.	.	.	.	.	32C/	.	.	.	.	.	.	.	.	.	.	.	.	.	.	.	.	.	.	.	.	.	.	.	.	.	.	.
4E\	.	.	.	.	.	.	.	.	.	.	32C/	.	4E\	.	.	.	.	.	.	.	.	.	.	.	.	.	.	.	.	.	.	.	.	.	[>2.ee\	.	.	.
.	.	.	.	.	.	.	.	.	.	.	32C/	.	.	.	.	.	.	.	.	.	.	.	.	.	.	.	.	.	.	.	.	.	.	.	.	.	.	.
.	.	.	.	.	.	.	.	.	.	.	32C/	.	.	.	.	.	.	.	.	.	.	.	.	.	.	.	.	.	.	.	.	.	.	.	.	.	.	.
.	.	.	.	.	.	.	.	.	.	.	32C/	.	.	.	.	.	.	.	.	.	.	.	.	.	.	.	.	.	.	.	.	.	.	.	.	.	.	.
.	.	.	.	.	.	.	.	.	.	.	32C/	.	.	.	.	.	.	.	.	.	.	.	.	.	.	.	.	.	.	.	.	.	.	.	.	.	.	.
.	.	.	.	.	.	.	.	.	.	.	32C/	.	.	.	.	.	.	.	.	.	.	.	.	.	.	.	.	.	.	.	.	.	.	.	.	.	.	.
.	.	.	.	.	.	.	.	.	.	.	32C/	.	.	.	.	.	.	.	.	.	.	.	.	.	.	.	.	.	.	.	.	.	.	.	.	.	.	.
.	.	.	.	[[	.	.	.	.	.	.	32C/	[[	.	[[	.	.	.	[[	.	[	.	.	.	.	[	.	[	.	[	.	[	.	.	.	.	.	.	[
!	!	!	!	!	!	!	!	!	!	!	!	!	!	!	!	!	!	!	!	!LO:HP:a	!	!	!	!	!	!	!LO:HP:a	!	!LO:HP:a	!	!LO:HP:a	!	!	!	!	!	!	!
4G\	.	.	.	>	.	.	.	.	.	.	32C/	>	4G\	>	.	.	.	>	.	>	.	.	.	.	>	.	>	.	>	.	>	.	.	.	.	.	.	>
.	.	.	.	.	.	.	.	.	.	.	32C/	.	.	.	.	.	.	.	.	.	.	.	.	.	.	.	.	.	.	.	.	.	.	.	.	.	.	.
.	.	.	.	.	.	.	.	.	.	.	32C/	.	.	.	.	.	.	.	.	.	.	.	.	.	.	.	.	.	.	.	.	.	.	.	.	.	.	.
.	.	.	.	.	.	.	.	.	.	.	32C/	.	.	.	.	.	.	.	.	.	.	.	.	.	.	.	.	.	.	.	.	.	.	.	.	.	.	.
.	.	.	.	.	.	.	.	.	.	.	32C/	.	.	.	.	.	.	.	.	.	.	.	.	.	.	.	.	.	.	.	.	.	.	.	.	.	.	.
.	.	.	.	.	.	.	.	.	.	.	32C/	.	.	.	.	.	.	.	.	.	.	.	.	.	.	.	.	.	.	.	.	.	.	.	.	.	.	.
.	.	.	.	.	.	.	.	.	.	.	32C/	.	.	.	.	.	.	.	.	.	.	.	.	.	.	.	.	.	.	.	.	.	.	.	.	.	.	.
.	.	.	.	.	.	.	.	.	.	.	32C/	.	.	.	.	.	.	.	.	.	.	.	.	.	.	.	.	.	.	.	.	.	.	.	.	.	.	.
4c\	.	.	.	.	.	.	.	.	.	.	32C/	.	4c\	.	.	.	.	.	.	.	.	.	.	.	.	.	.	.	.	.	.	.	.	.	.	.	.	.
.	.	.	.	.	.	.	.	.	.	.	32C/	.	.	.	.	.	.	.	.	.	.	.	.	.	.	.	.	.	.	.	.	.	.	.	.	.	.	.
.	.	.	.	.	.	.	.	.	.	.	32C/	.	.	.	.	.	.	.	.	.	.	.	.	.	.	.	.	.	.	.	.	.	.	.	.	.	.	.
.	.	.	.	.	.	.	.	.	.	.	32C/	.	.	.	.	.	.	.	.	.	.	.	.	.	.	.	.	.	.	.	.	.	.	.	.	.	.	.
.	.	.	.	.	.	.	.	.	.	.	32C/	.	.	.	.	.	.	.	.	.	.	.	.	.	.	.	.	.	.	.	.	.	.	.	.	.	.	.
.	.	.	.	.	.	.	.	.	.	.	32C/	.	.	.	.	.	.	.	.	.	.	.	.	.	.	.	.	.	.	.	.	.	.	.	.	.	.	.
.	.	.	.	.	.	.	.	.	.	.	32C/	.	.	.	.	.	.	.	.	.	.	.	.	.	.	.	.	.	.	.	.	.	.	.	.	.	.	.
.	.	.	.	]]	.	.	.	.	.	.	32C/JJJ	]]	.	]	.	.	.	]	.	]	.	.	.	.	.	.	]	.	]	.	]	.	.	.	.	.	.	]
*	*	*	*	*	*	*	*	*	*	*	*Xtremolo	*	*	*	*	*	*	*	*	*	*	*	*	*	*	*	*	*	*	*	*	*	*	*	*	*	*	*
*	*	*	*	*	*	*	*	*	*	*	*	*	*	*	*	*	*	*	*	*	*	*	*	*	*	*	*	*	*	*	*	*	*	*v	*v	*	*	*
=5	=5	=5	=5	=5	=5	=5	=5	=5	=5	=5	=5	=5	=5	=5	=5	=5	=5	=5	=5	=5	=5	=5	=5	=5	=5	=5	=5	=5	=5	=5	=5	=5	=5	=5	=5	=5	=5
*	*	*	*	*	*	*	*	*	*	*	*	*	*	*	*	*	*	*	*^	*	*	*	*	*	*	*	*	*	*	*	*	*	*	*	*	*	*
4C/	4g 4e 4c/	4C/	-ty!	.	4c\	4e/	.	4g/	-ty!	.	4C/	.	4C/	.	4C/]	.	4e] 4B-\]	.	4g/)	4e\	.	4g] 4c/]	.	4e/]	4e\	]	4e/	.	4g/)yy	.	4g/)	.	4ee\)	.	4ee] 4cc\)	.	4gg\)	.
4r	8.b-L 8.g/	4r	.	.	4r	4r	.	4r	.	.	4r	.	4r	.	4r	.	4r	.	4r	4ryy	.	4r	.	4r	4ryy	.	(<8.g/L	.	(<8.b-/Lyy	.	(<8.b-/L	.	4r	.	(>8.ggL 8.b-\	.	4r	.
.	32ccLL 32a/	.	.	.	.	.	.	.	.	.	.	.	.	.	.	.	.	.	.	.	.	.	.	.	.	.	32a/LL	.	32cc/LLyy	.	32cc/LL	.	.	.	32aaLL 32cc\	.	.	.
.	32b-JJJ 32g/	.	.	.	.	.	.	.	.	.	.	.	.	.	.	.	.	.	.	.	.	.	.	.	.	.	32g/JJJ)	.	32b-/JJJyy	.	32b-/JJJ	.	.	.	32ggJJJ 32b-\	.	.	.
2r	8aL 8f/	2r	.	.	2r	2r	.	2r	.	.	2r	.	2r	.	2r	.	2r	.	2r	2ryy	.	2r	.	2r	2ryy	.	8f/L	.	8a/L)yy	.	8a/L)	.	2r	.	8ffL 8a\)	.	2r	.
.	16gL 16e/	.	.	.	.	.	.	.	.	.	.	.	.	.	.	.	.	.	.	.	.	.	.	.	.	.	16e'</L	.	16g'</Lyy	.	16g'</L	.	.	.	16eeL 16g'>\	.	.	.
.	16aJJ 16f/	.	.	.	.	.	.	.	.	.	.	.	.	.	.	.	.	.	.	.	.	.	.	.	.	.	16f'</JJ	.	16a'</JJyy	.	16a'</JJ	.	.	.	16ffJJ 16a'>\	.	.	.
.	8b-L 8g/	.	.	.	.	.	.	.	.	.	.	.	.	.	.	.	.	.	.	.	.	.	.	.	.	.	8g'</L	.	8b-'</Lyy	.	8b-'</L	.	.	.	8ggL 8b-'>\	.	.	.
.	8bnJ 8g#X/	.	.	.	.	.	.	.	.	.	.	.	.	.	.	.	.	.	.	.	.	.	.	.	.	.	8g#X'</J	.	8bn'</Jyy	.	8bn'</J	.	.	.	8gg#XJ 8bn'>\	.	.	.
!!LO:PB:g=original
*	*	*	*	*	*	*	*	*	*	*	*	*	*	*	*	*	*	*	*v	*v	*	*	*	*	*	*	*	*	*	*	*	*	*	*	*	*	*	*
=6	=6	=6	=6	=6	=6	=6	=6	=6	=6	=6	=6	=6	=6	=6	=6	=6	=6	=6	=6	=6	=6	=6	=6	=6	=6	=6	=6	=6	=6	=6	=6	=6	=6	=6	=6	=6	=6
4F 4FF/	1cc 1a 1f	1F	Swię-	.	1A	1f	.	(>1cc	Swię-	.	1ryy	.	4F 4FF/	.	[>1F	.	1f 1A	.	(>1cc &(<1a	.	[>1f [<1A	.	[1A	1A	.	(>1a	.	(>1ccyy	.	(>1cc	.	(>1ff	.	1aa 1cc	.	(>1ccc	.
4F 4FF/	.	.	.	.	.	.	.	.	.	.	.	.	4F 4FF/	.	.	.	.	.	.	.	.	.	.	.	.	.	.	.	.	.	.	.	.	.	.	.	.
4A 4AA/	.	.	.	.	.	.	.	.	.	.	.	.	4A 4AA/	.	.	.	.	.	.	.	.	.	.	.	.	.	.	.	.	.	.	.	.	.	.	.	.
4c 4C\	.	.	.	.	.	.	.	.	.	.	.	.	4c 4C\	.	.	.	.	.	.	.	.	.	.	.	.	.	.	.	.	.	.	.	.	.	.	.	.
=7	=7	=7	=7	=7	=7	=7	=7	=7	=7	=7	=7	=7	=7	=7	=7	=7	=7	=7	=7	=7	=7	=7	=7	=7	=7	=7	=7	=7	=7	=7	=7	=7	=7	=7	=7	=7	=7
!	!	!	!	!	!	!	!	!	!	!	!	!	!	!	!	!	!	!	!LO:S:s=1:note:problem:note-level slur	!	!	!	!	!	!	!	!	!	!	!	!	!	!	!	!	!	!
!	!	!	!	!	!	!	!	!	!	!	!	!	!	!	!	!	!	!	!LO:S:s=2:note:problem:note-level slur	!	!	!	!	!	!	!	!	!	!	!	!	!	!	!	!	!	!
4F 4FF/	4a 4f 4c/	4F\	-ty!	.	4c\	4f/	.	4a/)	-ty!	.	1ryy	.	4f 4F\	.	4F\]	.	4f 4A\	.	4a) 4f/&)	.	4f] 4A/]	.	4A/]	4A\	.	4f/)	.	4a/)yy	.	4a/)	.	4cc/)	.	4ff 4a\	.	4aa\)	.
!	!	!	!	!LO:DY:a:rj	!	!	!	!	!	!LO:DY:a:rj	!	!	!	!	!	!	!	!LO:DY:b:rj	!	!LO:DY:b:rj	!	!LO:DY:b:rj	!	!	!	!	!LO:DY:a:rj	!	!LO:DY:b:rj	!	!LO:DY:b:rj	!	!LO:DY:b:rj	!	!LO:DY:b:rj	!	!LO:DY:b:rj
2c 2C\	2cc\	2c\	Wład-	f	2c\	2cc\	.	2cc\	Wład-	f	.	.	2c 2C\	.	2c\	.	2c\	f	2cc\	f	2cc 2c\	f	4r	4ryy	.	2cc\	f	2cc\yy	f	2cc\	f	2ccc\	f	2ccc 2cc\	f	2ccc\	f
.	.	.	.	.	.	.	.	.	.	.	.	.	.	.	.	.	.	.	.	.	.	.	2r	2ryy	.	.	.	.	.	.	.	.	.	.	.	.	.
8A\L	8a/L	8A\	-ca	.	8A/	8a/	.	8a/	-ca	.	.	.	8AL 8AA/	.	8A\L	.	8A/L	.	8a'</L	.	8aL 8A'</	.	.	.	.	8a'</L	.	8a'</Lyy	.	8a'</L	.	8aa\L	.	8aaL 8a'>\	.	8aa'>\	.
8F\J	8f/J	8F\	za-	.	8F/	8f/	.	8f/	za-	.	.	.	8FJ 8FF/	.	8F\J	.	8F/J	.	8f'</J	.	8fJ 8F'</	.	.	.	.	8f'</J	.	8f'</Jyy	.	8f'</J	.	8ff\J	.	8ffJ 8f'>\	.	8ff'>\	.
*	*	*	*	*	*	*	*	*	*	*	*	*	*	*	*	*	*	*	*	*	*	*	*v	*v	*	*	*	*	*	*	*	*	*	*	*	*	*
=8	=8	=8	=8	=8	=8	=8	=8	=8	=8	=8	=8	=8	=8	=8	=8	=8	=8	=8	=8	=8	=8	=8	=8	=8	=8	=8	=8	=8	=8	=8	=8	=8	=8	=8	=8	=8
*	*	*	*	*	*	*	*	*	*	*	*	*	*^	*	*	*	*	*	*	*	*	*	*	*	*	*	*	*	*	*	*	*	*	*	*	*
(<4.C/	(>4.c/	4.C/	-stę-	.	(<4.C/	(<4.c/	.	(<4.c/	-stę-	.	1ryy	.	(>4.C/	4.C\	.	(>4.C\	.	(<4.C/	.	(<4.c/	.	4.c 4.C/	.	1r	.	(<4.c/	.	4.c/yy	.	4.c/	.	(<4.cc/	.	(>4.cc &(<4.c/	.	(>4.cc\	.
!	!	!	!	!	!	!	!	!	!	!	!	!	!	!	!	!	!	!	!	!	!	!	!	!	!	!	!	!	!	!	!	!	!	!LO:S:s=1:note:problem:note-level slur	!	!	!
!	!	!	!	!	!	!	!	!	!	!	!	!	!	!	!	!	!	!	!	!	!	!	!	!	!	!	!	!	!	!	!	!	!	!LO:S:s=2:note:problem:note-level slur	!	!	!
8D/)	8d/)	8D/	.	.	8D/)	8d/)	.	8d/)	.	.	.	.	8D/)	8D\	.	8D\)	.	8D/)	.	8d/)	.	8d 8D/	.	.	.	8d/)	.	8d/yy	.	8d/	.	8dd/)	.	8dd) 8d/&)	.	8dd\)	.
4C/	4c/	4C/	-pów	.	4C/	4c/	.	4c/	-pów	.	.	.	4C/	4C\	.	4C\	.	4C/	.	4c/	.	4c 4C/	.	.	.	4c/	.	4c/yy	.	4c/	.	4cc/	.	4cc 4c/	.	4cc\	.
!	!	!	!	!LO:DY:a:rj	!	!	!	!	!	!LO:DY:a:rj	!	!	!	!	!LO:DY:b:rj	!	!	!	!	!	!LO:DY:b:rj	!	!LO:DY:a:rj	!	!	!	!LO:DY:b:rj	!	!LO:DY:b:rj	!	!LO:DY:b:rj	!	!	!	!	!	!
4c 4C\	8gL 8e/	8C/	Pan	p	8c\	8e/	.	8g/	Pan	p	.	.	[>4c [>4C\	4ryy	p	4r	.	4r	.	8gL 8e/	p	[>4c [<4C/	p	.	.	(<8e/L	p	(<8g/Lyy	p	(<8g/L	p	4r	.	(>8ggL 8ee\	.	4r	.
.	8aJ 8f/	8C/	Bóg	.	8c\	8f/	.	8a/	Bóg	.	.	.	.	.	.	.	.	.	.	8aJ 8f/	.	.	.	.	.	8f/J)	.	8a/J)yy	.	8a/J)	.	.	.	8aaJ 8ff\)	.	.	.
*	*	*	*	*	*	*	*	*	*	*	*	*	*v	*v	*	*	*	*	*	*	*	*	*	*	*	*	*	*	*	*	*	*	*	*	*	*	*
=9	=9	=9	=9	=9	=9	=9	=9	=9	=9	=9	=9	=9	=9	=9	=9	=9	=9	=9	=9	=9	=9	=9	=9	=9	=9	=9	=9	=9	=9	=9	=9	=9	=9	=9	=9	=9
*	*	*	*	*	*	*	*	*	*	*	*	*	*	*	*	*	*	*	*	*	*	*	*^	*	*	*	*	*	*	*	*	*	*	*	*	*
2.c 2.C\	4.b- 4.g/	4.C/	nie-	.	4.c\	4.g/	.	4.b-/	nie-	.	1ryy	.	2.c] 2.C\]	.	2r	.	2r	.	(<4.b- 4.g/	.	2.c] 2.C/]	.	2r	2ryy	.	(<4.g/	.	(<4.b-/yy	.	(<4.b-/	.	8.r	.	4.bb- 4.gg\	.	8.r	.
!	!	!	!	!	!	!	!	!	!	!	!	!	!	!	!	!	!	!	!	!	!	!	!	!	!	!	!	!	!	!	!	!	!LO:DY:b:rj	!	!	!	!LO:DY:b:rj
.	.	.	.	.	.	.	.	.	.	.	.	.	.	.	.	.	.	.	.	.	.	.	.	.	.	.	.	.	.	.	.	(>16cc/	p	.	.	(>16cc\	p
.	.	.	.	.	.	.	.	.	.	.	.	.	.	.	.	.	.	.	.	.	.	.	.	.	.	.	.	.	.	.	.	4ccc\)	.	.	.	4ccc\)	.
.	8a 8f#X/	8C/	-po-	.	8c\	8f#X/	.	8a/	-po-	.	.	.	.	.	.	.	.	.	8a 8f#X/)	.	.	.	.	.	.	8f#X/)	.	8a/)yy	.	8a/)	.	.	.	8aa 8ff#X\	.	.	.
.	8b-L 8g/	4C/	-ię-	.	4c\	8g/L	.	(<8b-/L	-ię-	.	.	.	.	.	4r	.	4r	.	(<8b-L 8g/	.	.	.	4r	4ryy	.	(<8g/L	.	8b-/Lyy	.	8b-/L	.	8.r	.	8bb-L 8gg\	.	8.r	.
.	8aJ 8fn/	.	.	.	.	8fn/J	.	8a/J)	.	.	.	.	.	.	.	.	.	.	8aJ 8fn/)	.	.	.	.	.	.	8fn/J)	.	8a/Jyy	.	8a/J	.	.	.	8aaJ 8ffn\	.	.	.
.	.	.	.	.	.	.	.	.	.	.	.	.	.	.	.	.	.	.	.	.	.	.	.	.	.	.	.	.	.	.	.	(>16cc/	.	.	.	(>16cc\	.
!	!	!	!	!	!	!	!	!	!	!	!	!	!	!LO:DY:b:rj	!	!	!	!	!	!	!	!LO:DY:b:rj	!	!	!LO:DY:b:rj	!	!	!	!	!	!	!	!	!	!	!	!LO:DY:b:rj
4c 4C\	4g 4e;>/	4C;>/	-ty	.	4c;>\	4e;>/	.	4g;>/	-ty	.	.	.	4c 4C;>\	f	4C;>/	.	4e 4B-;>\	.	4g 4e;>/	.	4c 4C;>/	f	4e;>/	4e\	f	4e;>/	.	4g;>/yy	.	4g;>/	.	4ccc;>\)	.	4gg 4ee^>;>\	.	4ccc;>\)	f
*	*	*	*	*	*	*	*	*	*	*	*	*	*	*	*	*	*	*	*	*	*	*	*v	*v	*	*	*	*	*	*	*	*	*	*	*	*	*
=10||	=10||	=10||	=10||	=10||	=10||	=10||	=10||	=10||	=10||	=10||	=10||	=10||	=10||	=10||	=10||	=10||	=10||	=10||	=10||	=10||	=10||	=10||	=10||	=10||	=10||	=10||	=10||	=10||	=10||	=10||	=10||	=10||	=10||	=10||	=10||	=10||
*>B	*>B	*>B	*	*	*>B	*>B	*	*>B	*	*	*>B	*	*>B	*	*>B	*	*>B	*	*>B	*	*>B	*	*>B	*	*>B	*	*>B	*	*>B	*	*>B	*	*>B	*	*>B	*
*k[b-]	*k[b-]	*k[b-]	*	*	*k[b-]	*k[b-]	*	*k[b-]	*	*	*k[b-]	*	*k[b-]	*	*k[b-]	*	*k[b-]	*	*k[b-]	*	*k[b-]	*	*k[f#c#]	*	*k[b-]	*	*k[b-]	*	*k[b-]	*	*k[b-]	*	*k[b-]	*	*k[b-]	*
*M3/4	*M3/4	*M3/4	*	*	*M3/4	*M3/4	*	*M3/4	*	*	*M3/4	*	*M3/4	*	*M3/4	*	*M3/4	*	*M3/4	*	*M3/4	*	*M3/4	*	*M3/4	*	*M3/4	*	*M3/4	*	*M3/4	*	*M3/4	*	*M3/4	*
!!!OMD: All(egr)o moderato
*^	*	*	*	*	*	*	*	*	*	*	*	*	*	*	*	*	*	*	*	*	*	*	*	*	*	*	*	*	*	*	*	*	*	*	*	*
!	!	!	!	!	!	!	!	!	!	!	!	!	!	!	!	!	!	!	!	!	!	!	!	!	!	!	!LO:DY:a:rj	!	!	!	!	!	!	!	!	!	!
4FF/	2.FF\	4a 4c/	4F\	Peł-	.	4c\	2.r	.	4a/	Peł-	.	2.ryy	.	4FF/	.	2.r	.	2.r	.	(>4cc 4a\	.	2.r	.	2.r	.	(<4c/	mf	(<4a/yy	.	(<4a/	.	2.r	.	(>4cc 4a/	mf	2.r	.
4F/	.	4f 4A/	4F\	-ne	.	4A\	.	.	4f/	-ne	.	.	.	4F\	.	.	.	.	.	4a 4f/)	.	.	.	.	.	4A/)	.	4f/)yy	.	4f/)	.	.	.	4a 4f/)	.	.	.
4F/	.	4g 4B-/	4F\	iest	.	4B-\	.	.	4g/	iest	.	.	.	4F\	.	.	.	.	.	4b- 4g/	.	.	.	.	.	4B-'</	.	4g'</yy	.	4g'</	.	.	.	4b- 4g'</	.	.	.
!!LO:PB:g=original
=11	=11	=11	=11	=11	=11	=11	=11	=11	=11	=11	=11	=11	=11	=11	=11	=11	=11	=11	=11	=11	=11	=11	=11	=11	=11	=11	=11	=11	=11	=11	=11	=11	=11	=11	=11	=11	=11
4FF/	2.FF\	4.a 4.c/	2F\	Nie-	.	(>4.c\	2.r	.	(<4.a/	.	.	2.r	.	4FF/	.	2.r	.	2.r	.	4.cc 4.a\	.	2.r	.	2.r	.	(>4.c/	.	(<4.a/yy	.	(<4.a/	.	2.r	.	(>4.cc 4.a\	.	2.r	.
4F/	.	.	.	.	.	.	.	.	.	.	.	.	.	4F\	.	.	.	.	.	.	.	.	.	.	.	.	.	.	.	.	.	.	.	.	.	.	.
.	.	8b- 8d/	.	.	.	8d\)	.	.	8b-/)	.	.	.	.	.	.	.	.	.	.	8dd 8b-\	.	.	.	.	.	8d/)	.	8b-/yy	.	8b-/	.	.	.	8dd 8b-\	.	.	.
4F/	.	4a 4c/	4F\	-bo	.	4c\	.	.	4a/	.	.	.	.	4F\	.	.	.	.	.	4cc 4a\	.	.	.	.	.	4c/	.	4a/)yy	.	4a/)	.	.	.	4cc 4a\)	.	.	.
=12	=12	=12	=12	=12	=12	=12	=12	=12	=12	=12	=12	=12	=12	=12	=12	=12	=12	=12	=12	=12	=12	=12	=12	=12	=12	=12	=12	=12	=12	=12	=12	=12	=12	=12	=12	=12	=12
4CC/	2.CC\	4.g 4.B-/	4.C/	pe-	.	4.B-\	2.r	.	4.g/	.	.	2.r	.	4CC/	.	2.r	.	2.r	.	4.b- 4.g/	.	2.r	.	2.r	.	(>4.B-/	.	(<4.g/yy	.	(<4.g/	.	2.r	.	4.b- 4.g/	.	2.r	.
4C/	.	.	.	.	.	.	.	.	.	.	.	.	.	4C/	.	.	.	.	.	.	.	.	.	.	.	.	.	.	.	.	.	.	.	.	.	.	.
.	.	8fL 8A/	8C/	-łen	.	8A\	.	.	8f/	.	.	.	.	.	.	.	.	.	.	8aL 8f/	.	.	.	.	.	8A/L	.	8f/Lyy	.	8f/L	.	.	.	8aL 8f/	.	.	.
4C/	.	8e 8G/	8C/	iest	.	8G/	.	.	8e/	.	.	.	.	4C/	.	.	.	.	.	8g 8e/	.	.	.	.	.	8G/	.	8e/yy	.	8e/	.	.	.	8g 8e/	.	.	.
.	.	8gJ 8B-/	8C/	świat	.	8B-\	.	.	8g/	.	.	.	.	.	.	.	.	.	.	8b-J 8g/	.	.	.	.	.	8B-/J)	.	8g/J)yy	.	8g/J)	.	.	.	8b-J 8g/	.	.	.
*v	*v	*	*	*	*	*	*	*	*	*	*	*	*	*	*	*	*	*	*	*	*	*	*	*	*	*	*	*	*	*	*	*	*	*	*	*	*
=13	=13	=13	=13	=13	=13	=13	=13	=13	=13	=13	=13	=13	=13	=13	=13	=13	=13	=13	=13	=13	=13	=13	=13	=13	=13	=13	=13	=13	=13	=13	=13	=13	=13	=13	=13	=13
4.F 4.FF\	[>4f [<4A/	4F\	ca-	.	4A\	2.r	.	4f/	.	.	2.r	.	4F\	.	2.r	.	2.r	.	4.a 4.f/	.	2.r	.	2.r	.	4.A/	.	[<4f/yy	.	[<4f/	.	8r	.	4a 4f/	.	8r	.
.	.	.	.	.	.	.	.	.	.	.	.	.	.	.	.	.	.	.	.	.	.	.	.	.	.	.	.	.	.	.	[>8ff\	.	.	.	[>8ff\	.
.	16f]LL 16A/]	8F\	-ły	.	8A\	.	.	8f/	.	.	.	.	8FF/	.	.	.	.	.	.	.	.	.	.	.	.	.	16f/LL]yy	.	16f/LL]	.	16ff\LL]	.	8a 8f/	.	16ff\LL]	.
.	16g/	.	.	.	.	.	.	.	.	.	.	.	.	.	.	.	.	.	.	.	.	.	.	.	.	.	16g/yy	.	16g/	.	(>16gg\	.	.	.	16gg\	.
8r	16a/	8r	.	.	8r	.	.	8r	.	.	.	.	8r	.	.	.	.	.	8r	.	.	.	.	.	8r	.	16a/yy	.	16a/	.	16aa\	.	8r	.	16aa\	<
.	16b-/JJ	.	.	.	.	.	.	.	.	.	.	.	.	.	.	.	.	.	.	.	.	.	.	.	.	.	16b-/JJyy	.	16b-/JJ	.	16bb-\JJ	.	.	.	16bb-\JJ	.
4r	16cc\LL	4r	.	.	4r	.	.	4r	.	.	.	.	4r	.	.	.	.	.	4r	.	.	.	.	.	4r	.	16cc\LLyy	.	16cc\LL	.	16ccc\LL	.	4r	.	16ccc\LL	.
.	16dd\	.	.	.	.	.	.	.	.	.	.	.	.	.	.	.	.	.	.	.	.	.	.	.	.	.	16dd\yy	.	16dd\	.	16ddd\	.	.	.	16ddd\	.
.	16ee\	.	.	.	.	.	.	.	.	.	.	.	.	.	.	.	.	.	.	.	.	.	.	.	.	.	16ee\yy	.	16ee\	.	16eee\	.	.	.	16eee\	.
.	16ff\JJ	.	.	.	.	.	.	.	.	.	.	.	.	.	.	.	.	.	.	.	.	.	.	.	.	.	16ff\JJyy	.	16ff\JJ	.	16fff\JJ)	.	.	.	16fff\JJ	[[
=14	=14	=14	=14	=14	=14	=14	=14	=14	=14	=14	=14	=14	=14	=14	=14	=14	=14	=14	=14	=14	=14	=14	=14	=14	=14	=14	=14	=14	=14	=14	=14	=14	=14	=14	=14	=14
*	*	*	*	*	*	*	*	*	*	*	*	*	*	*	*	*	*	*	*	*	*	*	*^	*	*	*	*	*	*	*	*	*	*	*	*	*
!	!	!	!	!	!	!	!	!	!	!	!	!	!LO:TX:t=P:problem:mixed beam	!	!	!	!	!	!	!	!	!	!	!	!	!	!	!	!	!	!	!	!	!	!	!	!
!	!	!	!	!LO:DY:a:rj	!	!	!	!	!	!LO:DY:a:rj	!	!	!	!LO:DY:b:rj	!	!	!	!LO:DY:b:rj	!	!	!	!	!	!	!	!	!LO:DY:b:rj	!	!LO:DY:b:rj	!	!LO:DY:b:rj	!	!LO:DY:b:rj	!	!	!	!LO:DY:b:rj
8C\L	2.ee 2.b- 2.g\	4C/	Je-	f	4B-\	4g/	.	4ee\	.	f	8C/L	.	8C\L	f	2.C/	.	2.e 2.B-\	f	8ccL 8e/	.	8gL 8c\	.	2.e/	2.e\	.	2.b-/	f	4.ee\yy	f	4.ee\	f	4.eee\	f	2.ee 2.g\	.	4.eee\	f
8E\	.	.	.	.	.	.	.	.	.	.	16C/L	.	8E\	.	.	.	.	.	16ccL 16e/	.	16gL 16c\	.	.	.	.	.	.	.	.	.	.	.	.	.	.	.	.
.	.	.	.	.	.	.	.	.	.	.	16C/JJ	.	.	.	.	.	.	.	16ccJJ 16e/	.	16gJJ 16c\	.	.	.	.	.	.	.	.	.	.	.	.	.	.	.	.
*	*	*	*	*	*	*	*	*	*	*	*tremolo	*	*	*	*	*	*	*	*tremolo	*	*tremolo	*	*	*	*	*	*	*	*	*	*	*	*	*	*	*	*
8G\	.	4C/	-go	.	4B-\	4g/	.	4ee\	.	.	8C/L	.	8G\	.	.	.	.	.	8ccL 8e/	.	8gL 8c\	.	.	.	.	.	.	.	.	.	.	.	.	.	.	.	.
8c\J	.	.	.	.	.	.	.	.	.	.	8C/	.	8c\	.	.	.	.	.	8cc 8e/	.	8g 8c\	.	.	.	.	.	.	(>16gg\LLyy	.	(>16gg\LL	.	(>16ggg\LL	.	.	.	(>16ggg\LL	.
.	.	.	.	.	.	.	.	.	.	.	.	.	.	.	.	.	.	.	.	.	.	.	.	.	.	.	.	16ff\JJyy	.	16ff\JJ	.	16fff\JJ	.	.	.	16fff\JJ	.
!LO:TX:t=P:problem:mixed beam	!	!	!	!	!	!	!	!	!	!	!	!	!	!	!	!	!	!	!	!	!	!	!	!	!	!	!	!	!	!	!	!	!	!	!	!	!
8C/L	.	4C/	po-	.	4B-\	4g/	.	4ee\	.	.	8C/	.	8C/	.	.	.	.	.	8cc 8e/	.	8g 8c\	.	.	.	.	.	.	16ee\LLyy	.	16ee\LL	.	16eee\LL	.	.	.	16eee\LL	.
.	.	.	.	.	.	.	.	.	.	.	.	.	.	.	.	.	.	.	.	.	.	.	.	.	.	.	.	16dd\yy	.	16dd\	.	16ddd\	.	.	.	16ddd\	.
8c\J	.	.	.	.	.	.	.	.	.	.	8C/J	.	8c\J	.	.	.	.	.	8ccJ 8e/	.	8gJ 8c\	.	.	.	.	.	.	16cc\yy	.	16cc\	.	16ccc\	.	.	.	16ccc\	.
!	!	!	!	!	!	!	!	!	!	!	!	!	!	!	!	!	!	!	!	!	!	!	!	!	!	!	!	!	!	!	!	!	!	!	!	!LO:TX:a:t=P:w źródle łuk kończy się na kresce taktowej:problem	!
.	.	.	.	.	.	.	.	.	.	.	.	.	.	.	.	.	.	.	.	.	.	.	.	.	.	.	.	16b-\JJ)yy	.	16b-\JJ)	.	16bb-\JJ)	.	.	.	16bb-\JJ)	.
*	*	*	*	*	*	*	*	*	*	*	*Xtremolo	*	*	*	*	*	*	*	*Xtremolo	*	*Xtremolo	*	*	*	*	*	*	*	*	*	*	*	*	*	*	*	*
=15	=15	=15	=15	=15	=15	=15	=15	=15	=15	=15	=15	=15	=15	=15	=15	=15	=15	=15	=15	=15	=15	=15	=15	=15	=15	=15	=15	=15	=15	=15	=15	=15	=15	=15	=15	=15	=15
*	*	*	*	*	*	*	*	*	*	*	*	*	*	*	*	*	*	*	*^	*	*	*	*	*	*	*	*	*	*	*	*	*	*	*	*	*	*
8c\L	2ff 2a 2f\	4D\	-tę-	.	4A\	4f/	.	4ff\	.	.	4F\	.	8d\L	.	2D/	.	2f 2A\	.	2a/	2f\	.	2f 2A/	.	2fX/	2d\	.	2a/	.	4.a/yy	.	4.a/	.	4.aa\	.	2ff 2f\	.	4.aa\	.
8A\	.	.	.	.	.	.	.	.	.	.	.	.	8A\	.	.	.	.	.	.	.	.	.	.	.	.	.	.	.	.	.	.	.	.	.	.	.	.	.
8F\	.	4D\	-gi	.	4A\	4f/	.	4ff\	.	.	4F\	.	8F\	.	.	.	.	.	.	.	.	.	.	.	.	.	.	.	.	.	.	.	.	.	.	.	.	.
8D\J	.	.	.	.	.	.	.	.	.	.	.	.	8D\J	.	.	.	.	.	.	.	.	.	.	.	.	.	.	.	(>8ff\Lyy	.	(>8ff\L	.	(>8fff\L	.	.	.	(>8fff\L	.
!LO:TX:t=P:problem:mixed beam	!	!	!	!	!	!	!	!	!	!	!	!	!LO:TX:t=P:problem:mixed beam	!	!	!	!	!	!	!	!	!	!	!	!	!	!	!	!	!	!	!	!	!	!	!	!	!
8BB-/L	8ddL 8b-/	4BB-/	i	.	(>8B-\L	(<8b-/L	.	(>8ee\L	.	.	4r	.	8BB-/L	.	4BB-/	.	4d 4B-\	.	4g/	4f\	.	4g 4B-/	.	4g/	4d\	.	4g/	.	8dd\yy	.	8dd\	.	8ddd\	.	4dd 4b-\	.	8ddd\	.
!	!	!	!	!	!	!	!	!	!	!	!	!	!	!	!	!	!	!	!	!	!	!	!	!	!	!	!	!	!	!	!	!	!	!	!	!	!LO:TX:a:t=P:w źródle łuk kończy się na kresce taktowej:problem	!
8B-\J	8b-J 8g 8d/	.	.	.	8d\J)	8g/J)	.	8b-\J)	.	.	.	.	8B-\J	.	.	.	.	.	.	.	.	.	.	.	.	.	.	.	8b-\J)yy	.	8b-\J)	.	8bb-\J	.	.	.	8bb-\J)	.
!!LO:PB:g=original
*	*	*	*	*	*	*	*	*	*	*	*	*	*	*	*	*	*	*	*v	*v	*	*	*	*	*	*	*	*	*	*	*	*	*	*	*	*	*	*
=16	=16	=16	=16	=16	=16	=16	=16	=16	=16	=16	=16	=16	=16	=16	=16	=16	=16	=16	=16	=16	=16	=16	=16	=16	=16	=16	=16	=16	=16	=16	=16	=16	=16	=16	=16	=16	=16
*	*	*	*	*	*	*	*	*	*	*	*	*	*	*	*	*	*	*	*	*	*^	*	*	*	*	*	*	*	*	*	*	*	*	*	*	*	*
*	*	*	*	*	*	*	*	*	*	*	*	*	*tremolo	*	*	*	*	*	*	*	*	*	*	*	*	*	*	*	*	*	*	*	*	*	*	*	*	*
!	!	!	!	!	!	!	!	!	!	!	!	!	!	!	!	!	!	!	!	!	!	!	!	!	!	!	!	!	!	!	!	!	!LO:TX:a:t=P:w źródle brak zakończenia łuku:problem	!	!	!	!	!
!	!	!	!	!	!	!	!	!	!	!LO:DY:a:rj	!	!	!	!LO:DY:b:rj	!	!	!	!	!	!	!	!	!LO:DY:b:rj	!	!	!LO:DY:b:rj	!	!	!	!LO:DY:b:rj	!	!LO:DY:b:rj	!	!	!	!LO:DY:b:rj	!	!LO:DY:b:rj
2C/	2a 2f 2c/	2.C/	chwa-	.	(>2c\	2f/	.	(<2a/	chwa-	p	2.r	.	8c\L	p	8C/	.	8c 8A\	.	2a 2f/	.	2a/	2f\	p	2cnX/	2cnX\	p	(<2f/	.	(<2a/	p	4.a/	p	4.aa\)	.	8cc\	p	4.aa\	p
.	.	.	.	.	.	.	.	.	.	.	.	.	8c\	.	8r	.	8r	.	.	.	.	.	.	.	.	.	.	.	.	.	.	.	.	.	8r	.	.	.
.	.	.	.	.	.	.	.	.	.	.	.	.	8c\	.	8C/	.	8f 8A\	.	.	.	.	.	.	.	.	.	.	.	.	.	.	.	.	.	8ff 8a\	.	.	.
.	.	.	.	.	.	.	.	.	.	.	.	.	8c\J	.	8r	.	8r	.	.	.	.	.	.	.	.	.	.	.	.	.	(>16dd\LL	.	(>16ddd\LL	.	8r	.	(>16ddd\LL	.
.	.	.	.	.	.	.	.	.	.	.	.	.	.	.	.	.	.	.	.	.	.	.	.	.	.	.	.	.	.	.	16cc\JJ)	.	16ccc\JJ)	.	.	.	16ccc\JJ)	.
*	*	*	*	*	*	*	*	*	*	*	*	*	*Xtremolo	*	*	*	*	*	*	*	*	*	*	*	*	*	*	*	*	*	*	*	*	*	*	*	*	*
4C 4CC/	4g 4e 4B-/	.	.	.	4B-\)	4e/	.	4g/)	.	.	.	.	8C/L	.	8C/	.	8e 8B-\	.	4g 4e/	.	4g 4c/	4ryy	.	4c/	4c\	.	4e/)	.	4g/)	.	8g'</L	.	8gg'>\L	.	8ee 8b-\	.	8gg'>\L	.
.	.	.	.	.	.	.	.	.	.	.	.	.	8C/J	.	8r	.	8r	.	.	.	.	.	.	.	.	.	.	.	.	.	(<16b-/L	.	(>16bb-\L	.	8r	.	(>16bb-\L	.
.	.	.	.	.	.	.	.	.	.	.	.	.	.	.	.	.	.	.	.	.	.	.	.	.	.	.	.	.	.	.	16a/JJ)	.	16aa\JJ)	.	.	.	16aa\JJ)	.
*	*	*	*	*	*	*	*	*	*	*	*	*	*	*	*	*	*	*	*	*	*v	*v	*	*	*	*	*	*	*	*	*	*	*	*	*	*	*	*
=17	=17	=17	=17	=17	=17	=17	=17	=17	=17	=17	=17	=17	=17	=17	=17	=17	=17	=17	=17	=17	=17	=17	=17	=17	=17	=17	=17	=17	=17	=17	=17	=17	=17	=17	=17	=17	=17
4F 4FF'/	4f 4A/	4F\	-ły	.	4A\	4f/	.	4f/	-ły	.	2.r	.	(>4F\	.	4F\	.	(>4f [>4A\	.	(<4f/	.	4f 4A/	.	4cnX/	4cnX\	.	(<4f/	.	(<4f/	.	(<4f/	.	4ff\	.	(>4ff 4a\	.	4ff\	.
!	!	!	!	!	!	!	!	!	!	!	!	!	!	!LO:DY:b:rj	!	!	!	!LO:DY:b:rj	!	!	!	!	!	!	!	!	!	!	!LO:DY:b:rj	!	!LO:DY:b:rj	!	!	!	!LO:DY:b:rj	!	!
8A\L	8a/L	4r	.	.	4r	4r	.	4r	.	.	.	.	8A\L)	f	8A'>\L	.	8aL) 8A\]	f	8a/L)	f	4r	.	4r	4ryy	.	8a/L)	.	8a/L)	f	8a/L)	f	4r	.	8aaL 8a\)	f	4r	.
8G\	8g/	.	.	.	.	.	.	.	.	.	.	.	8G'>\	.	8G'>\	.	8g 8G\	.	8g/	.	.	.	.	.	.	8g'</	.	8g'</	.	8g'</	.	.	.	8gg 8g'>\	.	.	.
8F\	8f/	4r	.	.	4r	4r	.	4r	.	.	.	.	8F'>\	.	8F'>\	.	8f 8F\	.	8f/	.	4r	.	4r	4ryy	.	8f'</	.	8f'</	.	8f'</	.	4r	.	8ff 8f'>\	.	4r	.
8E\J	8e/J	.	.	.	.	.	.	.	.	.	.	.	8E'>\J	.	8E'>\J	.	8eJ 8E\	.	8e/J	.	.	.	.	.	.	8e'</J	.	8e'</J	.	8e'</J	.	.	.	8eeJ 8e'>\	.	.	.
*	*	*	*	*	*	*	*	*	*	*	*	*	*	*	*	*	*	*	*	*	*	*	*v	*v	*	*	*	*	*	*	*	*	*	*	*	*	*
=18	=18	=18	=18	=18	=18	=18	=18	=18	=18	=18	=18	=18	=18	=18	=18	=18	=18	=18	=18	=18	=18	=18	=18	=18	=18	=18	=18	=18	=18	=18	=18	=18	=18	=18	=18	=18
!	!	!	!	!LO:DY:b:rj	!	!	!LO:DY:a:rj	!	!	!LO:DY:a:rj	!	!	!	!	!	!	!	!	!	!	!	!	!	!LO:DY:b:rj	!	!	!	!LO:DY:b:rj	!	!	!	!	!	!	!	!
4D\	4d/	4D\	Za-	f	4d\	4d/	f	4dd\	Za-	f	2.r	.	4D\	.	4D\	.	4d 4D\	.	4d/	.	2.r	.	4d 4D/	f	4d'</	.	4d'</	f	4d'</	.	4dd'</	.	4dd 4d'</	.	2.r	.
4F\	4f/	4F\	-brzmij-	.	4f\	4f/	.	4ff\	-brzmij-	.	.	.	4F\	.	4F\	.	4f 4F\	.	4f/	.	.	.	4fX 4FX/	.	4f'</	.	4f'</	.	4f'</	.	4ff'</	.	4ff 4f'</	.	.	.
4D\	4d/	4D\	-cie	.	4d\	4d/	.	4dd\	-cie	.	.	.	4D\	.	4D\	.	4d 4D\	.	4d/	.	.	.	4d 4D/	.	4d'</	.	4d'</	.	4d'</	.	4dd'</	.	4dd 4d'</	.	.	.
=19	=19	=19	=19	=19	=19	=19	=19	=19	=19	=19	=19	=19	=19	=19	=19	=19	=19	=19	=19	=19	=19	=19	=19	=19	=19	=19	=19	=19	=19	=19	=19	=19	=19	=19	=19	=19
*	*^	*	*	*	*	*	*	*	*	*	*	*	*	*	*	*	*^	*	*	*	*	*	*	*	*	*	*	*	*	*	*	*	*^	*	*	*
4.A\	4.a/	4.ryy	4A\	gó-	.	4A\	4a/	.	4a/	gó-	.	2.r	.	4A\	.	4AA/	.	4A/	4A\	.	4a/	.	4a 4A\	.	4A 4AA/	.	4a/	.	4a/	.	4a/	.	4aa\	.	4aa 4a\	4ryy	.	2.r	.
.	.	.	8A\	-ry	.	8A\	8a/	.	8a/	-ry	.	.	.	8AA/	.	8AA/	.	8A/	8A\	.	8a/	.	8a 8A\	.	8A 8AA/	.	8a/	.	8a/	.	8a/	.	8aa\	.	8aa 8a\	4ryy	.	.	.
8r	8r	8ryy	8r	.	.	8r	8r	.	8r	.	.	.	.	8r	.	8r	.	8r	8ryy	.	8r	.	8r	.	8r	.	8r	.	8r	.	8r	.	8r	.	8r	.	.	.	.
!	!	!	!	!	!	!	!	!	!	!	!LO:DY:a:rj	!	!	!	!LO:DY:b:rj	!	!	!	!	!LO:DY:b:rj	!	!	!	!	!	!LO:DY:b:rj	!	!	!	!LO:DY:b:rj	!	!LO:DY:b:rj	!	!	!	!	!LO:DY:b:rj	!	!
4A 4C#X\	4ee/	8.a\L	4C#X/	i	.	4A\	8.a/L	.	4ee\	i	p	.	.	4A 4C#X/	p	4C#X/	.	4e 4A\	4ryy	p	4r	.	4a 4A\	.	4e 4A/	p	4e/	.	8.a/L	p	8.aa\L	p	4r	.	8.aa/L	4ee\	p	.	.
.	.	16g\Jk	.	.	.	.	16g/Jk	.	.	.	.	.	.	.	.	.	.	.	.	.	.	.	.	.	.	.	.	.	16g/Jk	.	16gg\Jk	.	.	.	16gg/Jk	.	.	.	.
*	*v	*v	*	*	*	*	*	*	*	*	*	*	*	*	*	*	*	*v	*v	*	*	*	*	*	*	*	*	*	*	*	*	*	*	*	*	*	*	*	*
=20	=20	=20	=20	=20	=20	=20	=20	=20	=20	=20	=20	=20	=20	=20	=20	=20	=20	=20	=20	=20	=20	=20	=20	=20	=20	=20	=20	=20	=20	=20	=20	=20	=20	=20	=20	=20	=20
*^	*	*	*	*	*	*	*	*	*	*	*	*	*^	*	*	*	*	*	*	*	*	*	*	*	*	*	*	*	*	*	*	*	*	*	*	*	*
2.A/	4D\	4dd 4f/	4D/	mor-	.	4A\	4f/	.	4dd\	mor-	.	2.r	.	2A/	4D\	.	(<4D/	.	(>4f &(>4d\	.	2.r	.	2a 2A\	.	4fX 4d\	.	(<4f/	.	(<16f/LL	.	(16ff\LL	.	2.r	.	(>16ff/LL	4dd\	.	2.r	.
.	.	.	.	.	.	.	.	.	.	.	.	.	.	.	.	.	.	.	.	.	.	.	.	.	.	.	.	.	16a/	.	16aa\	.	.	.	16aa/	.	.	.	.
.	.	.	.	.	.	.	.	.	.	.	.	.	.	.	.	.	.	.	.	.	.	.	.	.	.	.	.	.	16g/	.	16gg\	.	.	.	16gg/	.	.	.	.
.	.	.	.	.	.	.	.	.	.	.	.	.	.	.	.	.	.	.	.	.	.	.	.	.	.	.	.	.	16f/JJ	.	16ff\JJ	.	.	.	16ff/JJ	.	.	.	.
!	!	!	!	!	!	!	!	!	!	!	!	!	!	!	!	!	!	!	!LO:S:s=1:note:problem:note-level slur	!	!	!	!	!	!	!	!	!	!	!	!	!	!	!	!	!	!	!	!
!	!	!	!	!	!	!	!	!	!	!	!	!	!	!	!	!	!	!	!LO:S:s=2:note:problem:note-level slur	!	!	!	!	!	!	!	!	!	!	!	!	!	!	!	!	!	!	!	!
.	4C#X\	4ee 4g/	4C#X/	-skie	.	4A\	4g/	.	4ee\	-skie	.	.	.	.	4C#X\	.	4C#X/)	.	4g) 4e\&)	.	.	.	.	.	4e 4A\	.	4g/	.	16e/LL	.	16ee\LL	.	.	.	16ee/LL	4ee\	.	.	.
.	.	.	.	.	.	.	.	.	.	.	.	.	.	.	.	.	.	.	.	.	.	.	.	.	.	.	.	.	16g/	.	16gg\	.	.	.	16gg/	.	.	.	.
.	.	.	.	.	.	.	.	.	.	.	.	.	.	.	.	.	.	.	.	.	.	.	.	.	.	.	.	.	16f/	.	16ff\	.	.	.	16ff/	.	.	.	.
.	.	.	.	.	.	.	.	.	.	.	.	.	.	.	.	.	.	.	.	.	.	.	.	.	.	.	.	.	16e/JJ	.	16ee\JJ	.	.	.	16ee/JJ	.	.	.	.
.	4D\	4dd 4f/	4D/	od-	.	4A\	4f/	.	4dd\	od-	.	.	.	4A/	4D\	.	4D/	.	4f 4d\	.	.	.	4a 4A\	.	4f 4d\	.	4f/)	.	16d/LL	.	16dd\LL	.	.	.	16dd/LL	4dd\	.	.	.
.	.	.	.	.	.	.	.	.	.	.	.	.	.	.	.	.	.	.	.	.	.	.	.	.	.	.	.	.	16f/	.	16ff\	.	.	.	16ff/	.	.	.	.
.	.	.	.	.	.	.	.	.	.	.	.	.	.	.	.	.	.	.	.	.	.	.	.	.	.	.	.	.	16e/	.	16ee\	.	.	.	16ee/	.	.	.	.
!	!	!	!	!	!	!	!	!	!	!	!	!	!	!	!	!	!	!	!	!	!	!	!	!	!	!	!	!	!	!	!LO:TX:a:t=P:w źródle łuk jest prawdopodobnie kontynuowany:problem	!	!	!	!	!	!	!	!
.	.	.	.	.	.	.	.	.	.	.	.	.	.	.	.	.	.	.	.	.	.	.	.	.	.	.	.	.	16d/JJ)	.	16dd\JJ	.	.	.	16dd/JJ)	.	.	.	.
!!LO:PB:g=original
*v	*v	*	*	*	*	*	*	*	*	*	*	*	*	*v	*v	*	*	*	*	*	*	*	*	*	*	*	*	*	*	*	*	*	*	*	*	*	*	*	*
=21	=21	=21	=21	=21	=21	=21	=21	=21	=21	=21	=21	=21	=21	=21	=21	=21	=21	=21	=21	=21	=21	=21	=21	=21	=21	=21	=21	=21	=21	=21	=21	=21	=21	=21	=21	=21	=21
4A 4AA\	4cc#X 4e/	4AA/	-mę-	.	4A\	4e/	.	4cc#X\	-mę-	.	2.ryy	.	[>4A [>4AA\	.	[<4AA/	.	[>4e [>4c#X\	.	4r	.	4.a 4.A/	.	[>4e [<4A/	.	[>4e/	.	[<4c#X/	.	16cc#X\LL	.	2.r	.	16cc#X/LL	4cc#\	.	4r	.
.	.	.	.	.	.	.	.	.	.	.	.	.	.	.	.	.	.	.	.	.	.	.	.	.	.	.	.	.	16ee\	.	.	.	16ee/	.	.	.	.
.	.	.	.	.	.	.	.	.	.	.	.	.	.	.	.	.	.	.	.	.	.	.	.	.	.	.	.	.	16gg#X\	.	.	.	16gg#X/	.	.	.	.
.	.	.	.	.	.	.	.	.	.	.	.	.	.	.	.	.	.	.	.	.	.	.	.	.	.	.	.	.	16aa\JJ)	.	.	.	16aa/JJ	.	.	.	.
!	!	!	!	!	!	!	!	!	!	!	!	!	!	!	!	!	!	!	!	!	!	!	!	!	!	!	!	!	!	!	!	!	!LO:TX:a:t=P:note position:problem	!	!	!	!
!	!	!	!	!	!	!	!	!	!	!	!	!	!	!	!	!	!	!	!	!LO:DY:b:rj	!	!	!	!	!	!	!	!	!LO:TX:t=P:problem:mixed beam	!	!	!	!	!	!	!	!
8A\L	8a/L	8AA/	-ty	.	8A\	8e/	.	8cc#\	-ty	.	.	.	8A]L 8AA\]	.	8AA/]	.	8e] 8c#\]	.	8a'</L	f	.	.	8e] 8A/]	.	8e/]	.	8c#/]	.	8a/L	.	.	.	8cc#\	8a/	.	8aa\L	.
!	!	!	!	!	!	!	!	!	!	!	!	!	!	!LO:DY:a:rj	!	!	!	!LO:DY:b:rj	!	!	!	!	!	!	!	!	!	!LO:DY:b:rj	!	!LO:DY:b:rj	!	!	!	!	!LO:DY:b:rj	!	!
8G\	8g/	8r	.	.	8r	8r	.	8r	.	.	.	.	8G'>\	f	8G\L	.	8gL 8G\	f	8g'</	.	8r	.	8r	.	8g'</L	.	8gn/L	f	8ggn\	f	.	.	8ggn/L	8re	f	8gg\	.
8F\	8f/	4r	.	.	4r	4r	.	4r	.	.	.	.	8F'>\	.	8F\	.	8f 8F\	.	8f'</	.	4r	.	4r	f	8f'</	.	8f/	.	8ff\	.	.	.	8ff/	4re	.	8ff\	.
8E\J	8e/J	.	.	.	.	.	.	.	.	.	.	.	8E'>\J	.	8E\J	.	8eJ 8E\	.	8e'</J	.	.	.	.	.	8e'</J	.	8e/J	.	8ee\J	.	.	.	8ee/J	.	.	8ee\J	.
*	*	*	*	*	*	*	*	*	*	*	*	*	*	*	*	*	*	*	*	*	*	*	*	*	*	*	*	*	*	*	*	*	*v	*v	*	*	*
=22	=22	=22	=22	=22	=22	=22	=22	=22	=22	=22	=22	=22	=22	=22	=22	=22	=22	=22	=22	=22	=22	=22	=22	=22	=22	=22	=22	=22	=22	=22	=22	=22	=22	=22	=22	=22
!	!	!	!	!LO:DY:a:rj	!	!	!	!	!	!LO:DY:a:rj	!	!	!	!	!	!	!	!	!	!	!	!	!	!	!	!	!	!	!	!	!	!LO:DY:b:rj	!	!	!	!
4D\	4d/	4D\	I	f	4d\	4d/	.	4dd\	I	f	2.ryy	.	4D\	.	4D\	.	4d 4D/	.	4d/	.	2.r	.	4d 4D/	.	4d/	.	4d/	.	4dd\	.	4ddd\	f	4dd 4d/	.	4dd\	.
4F\	4f/	4F\	wy	.	4f\	4f/	.	4ff\	wy	.	.	.	4F\	.	4F\	.	4f 4F/	.	4f/	.	.	.	4fX 4FX/	.	4f/	.	4f/	.	4ff\	.	4fff\	.	4ff 4f/	.	4ff\	.
4D\	4d/	4D\	na-	.	4d\	4d/	.	4dd\	na-	.	.	.	4D\	.	4D\	.	4d 4D/	.	4d/	.	.	.	4d 4D/	.	4d/	.	4d/	.	4dd\	.	4ddd\	.	4dd 4d/	.	4dd\	.
=23	=23	=23	=23	=23	=23	=23	=23	=23	=23	=23	=23	=23	=23	=23	=23	=23	=23	=23	=23	=23	=23	=23	=23	=23	=23	=23	=23	=23	=23	=23	=23	=23	=23	=23	=23	=23
*	*^	*	*	*	*	*	*	*	*	*	*	*	*^	*	*	*	*	*	*	*	*	*	*	*	*	*	*	*	*	*	*	*	*^	*	*	*
!	!	!	!	!	!	!	!	!	!	!	!	!	!	!	!	!	!	!	!	!	!	!	!	!LO:DY:b:rj	!	!	!	!	!	!	!	!	!	!	!	!	!	!	!
4.A\	4.a/	4.ryy	4AA/	-ro-	.	4A\	4a/	.	4a/	-ro-	.	2.ryy	.	4A\	4ryy	.	4AA/	.	4A\	.	4a/	.	4a 4A/	f	4A 4AA/	.	4a/	.	4a/	.	(>4aa\|	.	4aaa\	.	4aa 4a\	4ryy	.	4aa\	.
.	.	.	8AA/	-dy	.	8A\	8a/	.	8a/	-dy	.	.	.	8AA/	4ryy	.	8AA/	.	8A\	.	8a/	.	8a 8A/	.	8A 8AA/	.	8a/	.	8a/	.	8a/)|	.	8aaa\	.	8aa 8a\	4ryy	.	8aa\	.
8r	8r	8ryy	8r	.	.	8r	8r	.	8r	.	.	.	.	8r	.	.	8r	.	8r	p	8r	.	8r	.	8r	.	8r	.	8r	.	8r	.	8r	.	8r	.	.	8r	.
!	!	!	!	!	!	!	!	!	!	!	!	!	!	!	!	!	!	!	!	!	!	!	!	!LO:DY:b:rj	!	!LO:DY:b:rj	!	!LO:DY:b:rj	!	!	!	!LO:DY:b:rj	!	!	!	!	!LO:DY:b:rj	!	!
4A 4C#X\	4ee/	8.a\L	8.C#X/	ie-	.	8.A\	8.a/	.	8.ee\	je-	.	.	.	4A/	4C#X\	.	4A 4C#X\	.	4e 4A\	.	4r	.	4a 4A/	p	4e 4A/	p	4e/	p	(<8.a/L	.	(>8.aa\L	p	4r	.	(>8.aa/L	4ee\	p	4r	.
.	.	16g\Jk	16C#/	-dno	.	16A\	16g/	.	16ee\	-dno	.	.	.	.	.	.	.	.	.	.	.	.	.	.	.	.	.	.	16g/Jk)	.	16gg\Jk)	.	.	.	16gg/Jk)	.	.	.	.
*	*v	*v	*	*	*	*	*	*	*	*	*	*	*	*	*	*	*	*	*	*	*	*	*	*	*	*	*	*	*	*	*	*	*	*	*	*	*	*	*
=24	=24	=24	=24	=24	=24	=24	=24	=24	=24	=24	=24	=24	=24	=24	=24	=24	=24	=24	=24	=24	=24	=24	=24	=24	=24	=24	=24	=24	=24	=24	=24	=24	=24	=24	=24	=24	=24	=24
*^	*	*	*	*	*	*	*	*	*	*	*	*	*	*	*	*^	*	*	*	*	*	*	*	*^	*	*	*	*	*	*	*	*	*	*	*	*	*	*
!	!	!	!	!	!	!	!	!	!	!	!	!	!	!	!	!	!	!	!	!	!	!	!	!	!	!	!	!	!	!	!LO:TX:a:t=P:w źródle łuk kończy się za kreską taktową:problem	!	!LO:TX:a:t=P:w źródle łuk kończy się za kreską taktową:problem	!	!	!	!	!	!	!	!
2.A/	4D\	4dd 4f/	(<4D/	zgo-	.	[>4A\	(>4f/	.	(>4dd\	zgo-	.	2.ryy	.	[y>2A/	(>4D\	.	[>2A/	4D\	.	(>4f 4d\	.	2.r	.	2a 2A/	.	4fX/	4d\	.	4f/	.	(<16f/LL	.	(>16ff\LL	.	2.r	.	(>16ff/LL	4dd\	.	2.r	.
.	.	.	.	.	.	.	.	.	.	.	.	.	.	.	.	.	.	.	.	.	.	.	.	.	.	.	.	.	.	.	16a/	.	16aa\	.	.	.	16aa/	.	.	.	.
.	.	.	.	.	.	.	.	.	.	.	.	.	.	.	.	.	.	.	.	.	.	.	.	.	.	.	.	.	.	.	16g/	.	16gg\	.	.	.	16gg/	.	.	.	.
.	.	.	.	.	.	.	.	.	.	.	.	.	.	.	.	.	.	.	.	.	.	.	.	.	.	.	.	.	.	.	16f/JJ	.	16ff\JJ	.	.	.	16ff/JJ	.	.	.	.
.	4C#X\	4ee 4g/	4C#X/)	.	.	4A\]	4g/)	.	4ee\)	.	.	.	.	.	4C#X\)	.	.	4C#X\	.	4g 4e\)	.	.	.	.	.	4e 4A/	4ryy	.	4g/	.	16e/LL	.	16ee\LL	.	.	.	16ee/LL	4ee\	.	.	.
.	.	.	.	.	.	.	.	.	.	.	.	.	.	.	.	.	.	.	.	.	.	.	.	.	.	.	.	.	.	.	16g/	.	16gg\	.	.	.	16gg/	.	.	.	.
.	.	.	.	.	.	.	.	.	.	.	.	.	.	.	.	.	.	.	.	.	.	.	.	.	.	.	.	.	.	.	16f/	.	16ff\	.	.	.	16ff/	.	.	.	.
.	.	.	.	.	.	.	.	.	.	.	.	.	.	.	.	.	.	.	.	.	.	.	.	.	.	.	.	.	.	.	16e/JJ	.	16ee\JJ	.	.	.	16ee/JJ	.	.	.	.
.	4D\	4dd 4f/	4D/	-dnem	.	4A\	4f/	.	4dd\	-dnem	.	.	.	4A/]	4D\	.	4A/]	4D\	.	4f 4d\	.	.	.	4a 4A/	.	4f/	4d\	.	4f/	.	16d/LL	.	16dd\LL	.	.	.	16dd/LL	4dd\	.	.	.
.	.	.	.	.	.	.	.	.	.	.	.	.	.	.	.	.	.	.	.	.	.	.	.	.	.	.	.	.	.	.	16f/	.	16ff\	.	.	.	16ff/	.	.	.	.
.	.	.	.	.	.	.	.	.	.	.	.	.	.	.	.	.	.	.	.	.	.	.	.	.	.	.	.	.	.	.	16e/	.	16ee\	.	.	.	16ee/	.	.	.	.
!!LO:TX:a:t=P:w źródle po kresce taktowej pusta przestrzeń, następny takt na następnej stronie:problem
.	.	.	.	.	.	.	.	.	.	.	.	.	.	.	.	.	.	.	.	.	.	.	.	.	.	.	.	.	.	.	16d/JJ)	.	16dd\JJ)	.	.	.	16dd/JJ)	.	.	.	.
!!LO:PB:g=original
*	*	*	*	*	*	*	*	*	*	*	*	*	*	*v	*v	*	*	*	*	*	*	*	*	*	*	*v	*v	*	*	*	*	*	*	*	*	*	*	*	*	*	*
*v	*v	*	*	*	*	*	*	*	*	*	*	*	*	*	*	*v	*v	*	*	*	*	*	*	*	*	*	*	*	*	*	*	*	*	*	*	*	*	*	*
=25	=25	=25	=25	=25	=25	=25	=25	=25	=25	=25	=25	=25	=25	=25	=25	=25	=25	=25	=25	=25	=25	=25	=25	=25	=25	=25	=25	=25	=25	=25	=25	=25	=25	=25	=25	=25	=25
*	*	*	*	*	*	*	*	*	*	*	*	*	*	*	*	*	*	*	*^	*	*	*	*	*	*	*	*	*	*	*	*	*	*	*	*	*	*
*	*	*	*	*	*	*	*	*	*	*	*	*	*	*	*	*	*	*	*	*	*	*	*	*	*	*	*	*	*	*	*	*rscale:2	*	*	*	*	*	*
2A 2AA;</	2cc#X 2e;>/	4A\	pia-	.	4A\	4e/	.	4cc#X\	pia-	.	4r	.	2B- 2AA;>\	.	4r	.	4r	.	4r	4ryy	.	2a 2A;>/	.	2e 2A;>\	.	2e;>/	.	2c#X;>/	.	2cc#X;>\	.	64r	.	4cc#X/	2cc#X\	.	4r	.
.	.	.	.	.	.	.	.	.	.	.	.	.	.	.	.	.	.	.	.	.	.	.	.	.	.	.	.	.	.	.	.	(>64a/LLLL	.	.	.	.	.	.
.	.	.	.	.	.	.	.	.	.	.	.	.	.	.	.	.	.	.	.	.	.	.	.	.	.	.	.	.	.	.	.	64cc#X/	.	.	.	.	.	.
.	.	.	.	.	.	.	.	.	.	.	.	.	.	.	.	.	.	.	.	.	.	.	.	.	.	.	.	.	.	.	.	64ee/JJJJ	.	.	.	.	.	.
.	.	.	.	.	.	.	.	.	.	.	.	.	.	.	.	.	.	.	.	.	.	.	.	.	.	.	.	.	.	.	.	64aa\LLLL	.	.	.	.	.	.
.	.	.	.	.	.	.	.	.	.	.	.	.	.	.	.	.	.	.	.	.	.	.	.	.	.	.	.	.	.	.	.	64cc#\	.	.	.	.	.	.
.	.	.	.	.	.	.	.	.	.	.	.	.	.	.	.	.	.	.	.	.	.	.	.	.	.	.	.	.	.	.	.	64ee\	.	.	.	.	.	.
.	.	.	.	.	.	.	.	.	.	.	.	.	.	.	.	.	.	.	.	.	.	.	.	.	.	.	.	.	.	.	.	64aa\JJJJ	.	.	.	.	.	.
.	.	.	.	.	.	.	.	.	.	.	.	.	.	.	.	.	.	.	.	.	.	.	.	.	.	.	.	.	.	.	.	64ccc#X\LLLL	.	.	.	.	.	.
.	.	.	.	.	.	.	.	.	.	.	.	.	.	.	.	.	.	.	.	.	.	.	.	.	.	.	.	.	.	.	.	64ee\	.	.	.	.	.	.
.	.	.	.	.	.	.	.	.	.	.	.	.	.	.	.	.	.	.	.	.	.	.	.	.	.	.	.	.	.	.	.	64aa\	.	.	.	.	.	.
.	.	.	.	.	.	.	.	.	.	.	.	.	.	.	.	.	.	.	.	.	.	.	.	.	.	.	.	.	.	.	.	64ccc#\JJJJ	.	.	.	.	.	.
.	.	.	.	.	.	.	.	.	.	.	.	.	.	.	.	.	.	.	.	.	.	.	.	.	.	.	.	.	.	.	.	64eee\LLLL	.	.	.	.	.	.
.	.	.	.	.	.	.	.	.	.	.	.	.	.	.	.	.	.	.	.	.	.	.	.	.	.	.	.	.	.	.	.	64aa\	.	.	.	.	.	.
.	.	.	.	.	.	.	.	.	.	.	.	.	.	.	.	.	.	.	.	.	.	.	.	.	.	.	.	.	.	.	.	64ccc#\	.	.	.	.	.	.
.	.	.	.	.	.	.	.	.	.	.	.	.	.	.	.	.	.	.	.	.	.	.	.	.	.	.	.	.	.	.	.	64eee\JJJJ)	.	.	.	.	.	.
*	*	*	*	*	*	*	*	*	*	*	*	*	*	*	*	*	*	*	*	*	*	*	*	*	*	*	*	*	*	*	*	*rscale:1	*	*	*	*	*	*
!	!	!	!	!	!	!	!	!	!	!	!	!	!	!	!	!	!	!	!	!	!	!	!	!	!	!	!	!	!	!	!	!	!	!	!	!	!	!LO:DY:b:rj
.	.	4A;>\	-niem	.	4A;>\	4e;>/	.	4cc#;>\	-niem	.	4r;>	.	.	.	4r;>	.	4r;>	.	4r;>	4ryy	.	.	.	.	.	.	.	.	.	.	.	4aaa;>\	.	4aa;>/	.	.	4ccc#X;>\	p
!	!	!	!	!	!	!	!	!	!	!	!	!	!	!	!	!	!	!LO:DY:b:rj	!	!	!	!	!	!	!	!	!LO:DY:b:rj	!	!LO:DY:b:rj	!	!LO:DY:b:rj	!	!	!	!	!	!	!LO:DY:b:rj
4E 4EE/	4ccn 4b-X 4g/	4E\	Spie-	.	4B-X\	4g/	.	4ccn\	Spie-	.	4r	.	4E 4EE/	.	4E\	.	4c 4G\	f	4cc/	4b-X\	.	4g 4c/	.	4e 4G/	f	4b-X\	f	4ccn\	f	4ccn\	f	4r	.	4ccn/	4g\	.	4cccn\	f
=26	=26	=26	=26	=26	=26	=26	=26	=26	=26	=26	=26	=26	=26	=26	=26	=26	=26	=26	=26	=26	=26	=26	=26	=26	=26	=26	=26	=26	=26	=26	=26	=26	=26	=26	=26	=26	=26	=26
*	*	*	*	*	*	*	*	*	*	*	*	*	*	*	*	*	*	*	*	*	*	*	*	*^	*	*	*	*	*	*	*	*	*	*	*	*	*	*
*	*	*	*	*	*	*	*	*	*	*	*tremolo	*	*	*	*	*	*	*	*	*	*	*	*	*	*	*	*	*	*	*	*	*	*	*	*	*	*	*	*
!	!	!	!	!	!	!	!	!	!	!	!	!	!	!	!	!	!	!	!	!	!	!	!	!	!	!	!	!	!	!	!	!	!	!	!	!LO:TX:a:t=P:note position:problem	!	!	!
!	!	!	!	!	!	!	!	!	!	!	!	!	!	!	!	!	!	!	!	!	!	!	!	!	!	!	!	!	!	!	!	!	!	!LO:DY:b:rj	!	!	!	!	!
2.F 2.FF/	2cc 2a/	2F\	-waj-	.	2A\	2f/	.	2cc\	-waj-	.	32F\LLL	.	2F 2FF/	.	2F\	.	(>2c 2A\	.	(>2cc/	2a\	.	2f 2A/	.	2fX/	2A\	.	2a/	.	(>2cc\	.	(>16cc\LL	.	(<16cc/LL	f	(>16cc/LL	2a\	.	(>2ccc\	.
.	.	.	.	.	.	.	.	.	.	.	32F\	.	.	.	.	.	.	.	.	.	.	.	.	.	.	.	.	.	.	.	.	.	.	.	.	.	.	.	.
.	.	.	.	.	.	.	.	.	.	.	32F\	.	.	.	.	.	.	.	.	.	.	.	.	.	.	.	.	.	.	.	16a\	.	16a/	.	16a/	.	.	.	.
.	.	.	.	.	.	.	.	.	.	.	32F\	.	.	.	.	.	.	.	.	.	.	.	.	.	.	.	.	.	.	.	.	.	.	.	.	.	.	.	.
.	.	.	.	.	.	.	.	.	.	.	32F\	.	.	.	.	.	.	.	.	.	.	.	.	.	.	.	.	.	.	.	16f\	.	16f/	.	16ff/	.	.	.	.
.	.	.	.	.	.	.	.	.	.	.	32F\	.	.	.	.	.	.	.	.	.	.	.	.	.	.	.	.	.	.	.	.	.	.	.	.	.	.	.	.
.	.	.	.	.	.	.	.	.	.	.	32F\	.	.	.	.	.	.	.	.	.	.	.	.	.	.	.	.	.	.	.	16a\JJ	.	16a/JJ	.	16cc/JJ	.	.	.	.
.	.	.	.	.	.	.	.	.	.	.	32F\	.	.	.	.	.	.	.	.	.	.	.	.	.	.	.	.	.	.	.	.	.	.	.	.	.	.	.	.
.	.	.	.	.	.	.	.	.	.	.	32F\	.	.	.	.	.	.	.	.	.	.	.	.	.	.	.	.	.	.	.	16cc\LL	.	16cc/LL	.	16ccc/LL	.	.	.	.
.	.	.	.	.	.	.	.	.	.	.	32F\	.	.	.	.	.	.	.	.	.	.	.	.	.	.	.	.	.	.	.	.	.	.	.	.	.	.	.	.
.	.	.	.	.	.	.	.	.	.	.	32F\	.	.	.	.	.	.	.	.	.	.	.	.	.	.	.	.	.	.	.	16a\	.	16a/	.	16aa/	.	.	.	.
.	.	.	.	.	.	.	.	.	.	.	32F\	.	.	.	.	.	.	.	.	.	.	.	.	.	.	.	.	.	.	.	.	.	.	.	.	.	.	.	.
.	.	.	.	.	.	.	.	.	.	.	32F\	.	.	.	.	.	.	.	.	.	.	.	.	.	.	.	.	.	.	.	16ff\	.	16ff/	.	16ff/	.	.	.	.
.	.	.	.	.	.	.	.	.	.	.	32F\	.	.	.	.	.	.	.	.	.	.	.	.	.	.	.	.	.	.	.	.	.	.	.	.	.	.	.	.
.	.	.	.	.	.	.	.	.	.	.	32F\	.	.	.	.	.	.	.	.	.	.	.	.	.	.	.	.	.	.	.	16cc\JJ	.	16cc/JJ	.	16cc/JJ	.	.	.	.
.	.	.	.	.	.	.	.	.	.	.	32F\JJJ	.	.	.	.	.	.	.	.	.	.	.	.	.	.	.	.	.	.	.	.	.	.	.	.	.	.	.	.
*	*	*	*	*	*	*	*	*	*	*	*Xtremolo	*	*	*	*	*	*	*	*	*	*	*	*	*	*	*	*	*	*	*	*	*	*	*	*	*	*	*	*
.	4a 4f/	4F\	-cie	.	4c\	4f/	.	4a/	-cie	.	8F\	.	4F 4FF/	.	4F\	.	4A 4F\)	.	4a/)	4f\	.	4a 4f\	.	4r	4ryy	.	4g/	.	4a/)	.	16aa\LL	.	16aa/LL	.	16aa/LL	4cc\	.	4aa\)	.
.	.	.	.	.	.	.	.	.	.	.	.	.	.	.	.	.	.	.	.	.	.	.	.	.	.	.	.	.	.	.	16ff\	.	16ff/	.	16ff/	.	.	.	.
.	.	.	.	.	.	.	.	.	.	.	8r	.	.	.	.	.	.	.	.	.	.	.	.	.	.	.	.	.	.	.	16cc\	.	16cc/	.	16cc/	.	.	.	.
.	.	.	.	.	.	.	.	.	.	.	.	.	.	.	.	.	.	.	.	.	.	.	.	.	.	.	.	.	.	.	16a\JJ)	.	16a/JJ)	.	16a/JJ)	.	.	.	.
*	*	*	*	*	*	*	*	*	*	*	*	*	*	*	*	*	*	*	*v	*v	*	*	*	*v	*v	*	*	*	*	*	*	*	*	*	*	*	*	*	*
=27	=27	=27	=27	=27	=27	=27	=27	=27	=27	=27	=27	=27	=27	=27	=27	=27	=27	=27	=27	=27	=27	=27	=27	=27	=27	=27	=27	=27	=27	=27	=27	=27	=27	=27	=27	=27	=27
*	*	*	*	*	*	*	*	*	*	*	*tremolo	*	*	*	*	*	*	*	*	*	*	*	*	*	*	*	*	*	*	*	*	*	*	*	*	*	*
!	!	!	!	!	!	!	!	!	!	!	!	!	!	!	!	!	!	!	!	!	!	!	!	!	!	!	!	!	!	!	!	!	!	!LO:TX:a:t=P:note position:problem	!	!	!
2.F 2.FF/	2ff 2a 2f\	2F\	wie-	.	2c\	2a/	.	2ff\	wie-	.	32F\LLL	.	2F 2FF/	.	2F\	.	(>2f 2A\	.	(>2ff 2a\	.	2a 2f\	.	2.r	.	2a/	.	(>2ff\	.	16ff\LL	.	(<16ff/LL	.	(>16ff/LL	2cc\	.	(>2fff\	.
.	.	.	.	.	.	.	.	.	.	.	32F\	.	.	.	.	.	.	.	.	.	.	.	.	.	.	.	.	.	.	.	.	.	.	.	.	.	.
.	.	.	.	.	.	.	.	.	.	.	32F\	.	.	.	.	.	.	.	.	.	.	.	.	.	.	.	.	.	16cc\	.	16cc/	.	16cc/	.	.	.	.
.	.	.	.	.	.	.	.	.	.	.	32F\	.	.	.	.	.	.	.	.	.	.	.	.	.	.	.	.	.	.	.	.	.	.	.	.	.	.
.	.	.	.	.	.	.	.	.	.	.	32F\	.	.	.	.	.	.	.	.	.	.	.	.	.	.	.	.	.	16a\	.	16a/	.	16a/	.	.	.	.
.	.	.	.	.	.	.	.	.	.	.	32F\	.	.	.	.	.	.	.	.	.	.	.	.	.	.	.	.	.	.	.	.	.	.	.	.	.	.
.	.	.	.	.	.	.	.	.	.	.	32F\	.	.	.	.	.	.	.	.	.	.	.	.	.	.	.	.	.	16cc\JJ	.	16cc/JJ	.	16cc/JJ	.	.	.	.
.	.	.	.	.	.	.	.	.	.	.	32F\	.	.	.	.	.	.	.	.	.	.	.	.	.	.	.	.	.	.	.	.	.	.	.	.	.	.
.	.	.	.	.	.	.	.	.	.	.	32F\	.	.	.	.	.	.	.	.	.	.	.	.	.	.	.	.	.	16ff\LL	.	16ff/LL	.	16ff/LL	.	.	.	.
.	.	.	.	.	.	.	.	.	.	.	32F\	.	.	.	.	.	.	.	.	.	.	.	.	.	.	.	.	.	.	.	.	.	.	.	.	.	.
.	.	.	.	.	.	.	.	.	.	.	32F\	.	.	.	.	.	.	.	.	.	.	.	.	.	.	.	.	.	16cc\	.	16cc/	.	16cc/	.	.	.	.
.	.	.	.	.	.	.	.	.	.	.	32F\	.	.	.	.	.	.	.	.	.	.	.	.	.	.	.	.	.	.	.	.	.	.	.	.	.	.
.	.	.	.	.	.	.	.	.	.	.	32F\	.	.	.	.	.	.	.	.	.	.	.	.	.	.	.	.	.	16aa\	.	16aa/	.	16aa/	.	.	.	.
.	.	.	.	.	.	.	.	.	.	.	32F\	.	.	.	.	.	.	.	.	.	.	.	.	.	.	.	.	.	.	.	.	.	.	.	.	.	.
.	.	.	.	.	.	.	.	.	.	.	32F\	.	.	.	.	.	.	.	.	.	.	.	.	.	.	.	.	.	16ff\JJ	.	16ff/JJ	.	16ff/JJ	.	.	.	.
.	.	.	.	.	.	.	.	.	.	.	32F\JJJ	.	.	.	.	.	.	.	.	.	.	.	.	.	.	.	.	.	.	.	.	.	.	.	.	.	.
*	*	*	*	*	*	*	*	*	*	*	*Xtremolo	*	*	*	*	*	*	*	*	*	*	*	*	*	*	*	*	*	*	*	*	*	*	*	*	*	*
.	4cc 4a 4f\	4F\	-cznie	.	4A\	4f/	.	4cc\	-cznie	.	8F\	.	4F 4FF/	.	4F\	.	4c 4A\)	.	4cc 4a\)	.	4a 4f\	.	.	.	4a/	.	4cc\)	.	16ccc\LL	.	16ccc/LL	.	16ccc/LL	4ff\	.	4ccc\)	.
.	.	.	.	.	.	.	.	.	.	.	.	.	.	.	.	.	.	.	.	.	.	.	.	.	.	.	.	.	16aa\	.	16aa/	.	16aa/	.	.	.	.
.	.	.	.	.	.	.	.	.	.	.	8r	.	.	.	.	.	.	.	.	.	.	.	.	.	.	.	.	.	16ff\	.	16ff/	.	16ff/	.	.	.	.
.	.	.	.	.	.	.	.	.	.	.	.	.	.	.	.	.	.	.	.	.	.	.	.	.	.	.	.	.	16cc\JJ	.	16cc/JJ)	.	16cc/JJ)	.	.	.	.
=28||	=28||	=28||	=28||	=28||	=28||	=28||	=28||	=28||	=28||	=28||	=28||	=28||	=28||	=28||	=28||	=28||	=28||	=28||	=28||	=28||	=28||	=28||	=28||	=28||	=28||	=28||	=28||	=28||	=28||	=28||	=28||	=28||	=28||	=28||	=28||	=28||	=28||
*>C	*>C	*>C	*	*	*>C	*>C	*	*>C	*	*	*>C	*	*>C	*	*>C	*	*>C	*	*>C	*	*>C	*	*>C	*	*>C	*	*>C	*	*>C	*	*>C	*	*>C	*	*	*>C	*
!!!OMD: Adagio.
*	*	*	*	*	*	*	*	*	*	*	*	*	*	*	*	*	*	*	*	*	*	*	*^	*	*	*	*	*	*	*	*	*	*	*	*	*	*
*	*	*	*	*	*	*	*	*	*	*	*tremolo	*	*	*	*	*	*	*	*	*	*	*	*	*	*	*	*	*	*	*	*	*	*	*	*	*	*	*
!	!	!	!	!	!	!	!	!	!	!	!	!	!	!	!	!	!	!	!	!	!	!	!	!	!	!	!	!	!	!	!	!	!	!	!LO:TX:a:t=P:note position:problem	!	!	!
[>2.B- [>2.BB-\	[>2.dd [>2.b- [>2.f/	2.BB-/	Swię-	.	2.B-\	2.f/	.	[>2.dd\	Swię-	.	32F\LLL	.	16FLL 16BB-\|	.	[<2.BB-/	.	[>2.d [>2.F/	.	[>2.dd [>2.b-\	.	[>2.b- [>2.f\	.	[>2.d/	2.d\	.	(>2.cc\	.	[>2.dd\	.	16r	.	16dd/	.	(>4ff\	2.dd/	.	16r	.
.	.	.	.	.	.	.	.	.	.	.	32F\	.	.	.	.	.	.	.	.	.	.	.	.	.	.	.	.	.	.	.	.	.	.	.	.	.	.	.
.	.	.	.	.	.	.	.	.	.	.	32F\	.	(>16f\	.	.	.	.	.	.	.	.	.	.	.	.	.	.	.	.	(<16F/LL	.	(<16f/LL	.	.	.	.	(<16f/LL	.
.	.	.	.	.	.	.	.	.	.	.	32F\	.	.	.	.	.	.	.	.	.	.	.	.	.	.	.	.	.	.	.	.	.	.	.	.	.	.	.
.	.	.	.	.	.	.	.	.	.	.	32F\	.	16d\	.	.	.	.	.	.	.	.	.	.	.	.	.	.	.	.	16B-/	.	16b-/	.	.	.	.	16b-/	.
.	.	.	.	.	.	.	.	.	.	.	32F\	.	.	.	.	.	.	.	.	.	.	.	.	.	.	.	.	.	.	.	.	.	.	.	.	.	.	.
.	.	.	.	.	.	.	.	.	.	.	32F\	.	16B-\JJ	.	.	.	.	.	.	.	.	.	.	.	.	.	.	.	.	16d/JJ	.	16dd/JJ	.	.	.	.	16dd/JJ	.
.	.	.	.	.	.	.	.	.	.	.	32F\	.	.	.	.	.	.	.	.	.	.	.	.	.	.	.	.	.	.	.	.	.	.	.	.	.	.	.
.	.	.	.	.	.	.	.	.	.	.	32F\	.	16F\LL)	.	.	.	.	.	.	.	.	.	.	.	.	.	.	.	.	16f/LL)	.	16ff/LL)	.	4dd\	.	.	16ff\LL)	.
.	.	.	.	.	.	.	.	.	.	.	32F\	.	.	.	.	.	.	.	.	.	.	.	.	.	.	.	.	.	.	.	.	.	.	.	.	.	.	.
.	.	.	.	.	.	.	.	.	.	.	32F\	.	(>16d\	.	.	.	.	.	.	.	.	.	.	.	.	.	.	.	.	(<16B-/	.	(<16b-/	.	.	.	.	(>16b-\	.
.	.	.	.	.	.	.	.	.	.	.	32F\	.	.	.	.	.	.	.	.	.	.	.	.	.	.	.	.	.	.	.	.	.	.	.	.	.	.	.
.	.	.	.	.	.	.	.	.	.	.	32F\	.	16B-\	.	.	.	.	.	.	.	.	.	.	.	.	.	.	.	.	16d/	.	16dd/	.	.	.	.	16dd\	.
.	.	.	.	.	.	.	.	.	.	.	32F\	.	.	.	.	.	.	.	.	.	.	.	.	.	.	.	.	.	.	.	.	.	.	.	.	.	.	.
.	.	.	.	.	.	.	.	.	.	.	32F\	.	16F\JJ	.	.	.	.	.	.	.	.	.	.	.	.	.	.	.	.	16f/JJ	.	16ff/JJ	.	.	.	.	16ff\JJ	.
.	.	.	.	.	.	.	.	.	.	.	32F\	.	.	.	.	.	.	.	.	.	.	.	.	.	.	.	.	.	.	.	.	.	.	.	.	.	.	.
.	.	.	.	.	.	.	.	.	.	.	32F\	.	16D\LL)	.	.	.	.	.	.	.	.	.	.	.	.	.	.	.	.	16b-/LL)	.	16bb-\LL)	.	4b-\	.	.	16bb-\LL)	.
.	.	.	.	.	.	.	.	.	.	.	32F\	.	.	.	.	.	.	.	.	.	.	.	.	.	.	.	.	.	.	.	.	.	.	.	.	.	.	.
.	.	.	.	.	.	.	.	.	.	.	32F\	.	(>16B-\	.	.	.	.	.	.	.	.	.	.	.	.	.	.	.	.	(<16d/	.	(>16dd\	.	.	.	.	(>16dd\	.
.	.	.	.	.	.	.	.	.	.	.	32F\	.	.	.	.	.	.	.	.	.	.	.	.	.	.	.	.	.	.	.	.	.	.	.	.	.	.	.
.	.	.	.	.	.	.	.	.	.	.	32F\	.	16F\	.	.	.	.	.	.	.	.	.	.	.	.	.	.	.	.	&(>16f/	.	16ff\	.	.	.	.	16ff\	.
.	.	.	.	.	.	.	.	.	.	.	32F\	.	.	.	.	.	.	.	.	.	.	.	.	.	.	.	.	.	.	.	.	.	.	.	.	.	.	.
.	.	.	.	.	.	.	.	.	.	.	32F\	.	16D\JJ	.	.	.	.	.	.	.	.	.	.	.	.	.	.	.	.	16b-/JJ	.	16bb-\JJ	.	.	.	.	16bb-\JJ	.
.	.	.	.	.	.	.	.	.	.	.	32F\JJJ	.	.	.	.	.	.	.	.	.	.	.	.	.	.	.	.	.	.	.	.	.	.	.	.	.	.	.
*	*	*	*	*	*	*	*	*	*	*	*Xtremolo	*	*	*	*	*	*	*	*	*	*	*	*	*	*	*	*	*	*	*	*	*	*	*	*	*	*	*
=29	=29	=29	=29	=29	=29	=29	=29	=29	=29	=29	=29	=29	=29	=29	=29	=29	=29	=29	=29	=29	=29	=29	=29	=29	=29	=29	=29	=29	=29	=29	=29	=29	=29	=29	=29	=29	=29	=29
4B-] 4BB-\]	4dd] 4b-] 4f/]	4BB-/	-ty!	.	4B-\	4f/	.	4dd\]	-ty!	.	4F\	.	4BB-/)	.	4BB-/]	.	4d] 4F/]	.	4dd] 4b-\]	.	4b-] 4f\]	.	4d/]	4d\	.	4b-\)	.	4dd\]	.	4dd\&))	.	4ddd\)	.	4dd/	4b-\)	.	4ddd\)	.
4r	4r	4r	.	.	4r	4r	.	4r	.	.	4r	.	4r	.	4r	.	4r	.	4r	.	4r	.	4r	4ryy	.	4r	.	4r	.	4r	.	4r	.	4r	4ryy	.	4r	.
4r	4r	4r	.	.	4r	4r	.	4r	.	.	4r	.	4r	.	4r	.	4r	.	4r	.	4r	.	4r	4ryy	.	4r	.	4r	.	4r	.	4r	.	4r	4ryy	.	4r	.
!!LO:PB:g=original
*	*	*	*	*	*	*	*	*	*	*	*	*	*	*	*	*	*	*	*	*	*	*	*	*	*	*	*	*	*	*	*	*	*	*v	*v	*	*	*
=30	=30	=30	=30	=30	=30	=30	=30	=30	=30	=30	=30	=30	=30	=30	=30	=30	=30	=30	=30	=30	=30	=30	=30	=30	=30	=30	=30	=30	=30	=30	=30	=30	=30	=30	=30	=30	=30
*	*	*	*	*	*	*	*	*	*	*	*	*	*	*	*	*	*^	*	*^	*	*	*	*	*	*	*	*	*	*	*	*	*	*	*	*	*	*
*	*	*	*	*	*	*	*	*	*	*	*tremolo	*	*	*	*	*	*	*	*	*	*	*	*	*	*	*	*	*	*	*	*	*	*	*	*	*	*	*	*
[>2.c [>2.C\	[>2.ee [>2.b- [>2.g\	2.C/	Swię-	.	2.B-\	2.g/	.	2.ee\	Świę-	.	32C/LLL	.	16C\LL|	.	[<2.C/	.	2.e/	2.B-\	.	2.cc/	2.b-\	.	2.g 2.c/	.	[>2.e/	[>2.e\	.	[>2.b-\	.	2.ee\	.	16r	.	16r	.	[>2.ee [>2.g\	.	16r	.
.	.	.	.	.	.	.	.	.	.	.	32C/	.	.	.	.	.	.	.	.	.	.	.	.	.	.	.	.	.	.	.	.	.	.	.	.	.	.	.	.
.	.	.	.	.	.	.	.	.	.	.	32C/	.	(>16g\	.	.	.	.	.	.	.	.	.	.	.	.	.	.	.	.	.	.	(<16d/LL	.	(>16ee\LL	.	.	.	(>16ee\LL	.
.	.	.	.	.	.	.	.	.	.	.	32C/	.	.	.	.	.	.	.	.	.	.	.	.	.	.	.	.	.	.	.	.	.	.	.	.	.	.	.	.
.	.	.	.	.	.	.	.	.	.	.	32C/	.	16e\	.	.	.	.	.	.	.	.	.	.	.	.	.	.	.	.	.	.	16g/	.	16gg\	.	.	.	16gg\	.
.	.	.	.	.	.	.	.	.	.	.	32C/	.	.	.	.	.	.	.	.	.	.	.	.	.	.	.	.	.	.	.	.	.	.	.	.	.	.	.	.
.	.	.	.	.	.	.	.	.	.	.	32C/	.	16c\JJ	.	.	.	.	.	.	.	.	.	.	.	.	.	.	.	.	.	.	16b-/JJ	.	16bb-\JJ	.	.	.	16bb-\JJ	.
.	.	.	.	.	.	.	.	.	.	.	32C/	.	.	.	.	.	.	.	.	.	.	.	.	.	.	.	.	.	.	.	.	.	.	.	.	.	.	.	.
.	.	.	.	.	.	.	.	.	.	.	32C/	.	16G\LL)	.	.	.	.	.	.	.	.	.	.	.	.	.	.	.	.	.	.	16cc\LL)	.	16ccc\LL)	.	.	.	16ccc\LL)	.
.	.	.	.	.	.	.	.	.	.	.	32C/	.	.	.	.	.	.	.	.	.	.	.	.	.	.	.	.	.	.	.	.	.	.	.	.	.	.	.	.
.	.	.	.	.	.	.	.	.	.	.	32C/	.	(>16e\	.	.	.	.	.	.	.	.	.	.	.	.	.	.	.	.	.	.	(>16g\	.	(>16gg\	.	.	.	(>16gg\	.
.	.	.	.	.	.	.	.	.	.	.	32C/	.	.	.	.	.	.	.	.	.	.	.	.	.	.	.	.	.	.	.	.	.	.	.	.	.	.	.	.
.	.	.	.	.	.	.	.	.	.	.	32C/	.	16c\	.	.	.	.	.	.	.	.	.	.	.	.	.	.	.	.	.	.	16b-\	.	16bb-\	.	.	.	16bb-\	.
.	.	.	.	.	.	.	.	.	.	.	32C/	.	.	.	.	.	.	.	.	.	.	.	.	.	.	.	.	.	.	.	.	.	.	.	.	.	.	.	.
.	.	.	.	.	.	.	.	.	.	.	32C/	.	16G\JJ	.	.	.	.	.	.	.	.	.	.	.	.	.	.	.	.	.	.	16cc\JJ	.	16ccc\JJ	.	.	.	16ccc\JJ	.
.	.	.	.	.	.	.	.	.	.	.	32C/	.	.	.	.	.	.	.	.	.	.	.	.	.	.	.	.	.	.	.	.	.	.	.	.	.	.	.	.
.	.	.	.	.	.	.	.	.	.	.	32C/	.	16E\LL)	.	.	.	.	.	.	.	.	.	.	.	.	.	.	.	.	.	.	16ee\LL)	.	16eee\LL)	.	.	.	16eee\LL)	.
.	.	.	.	.	.	.	.	.	.	.	32C/	.	.	.	.	.	.	.	.	.	.	.	.	.	.	.	.	.	.	.	.	.	.	.	.	.	.	.	.
.	.	.	.	.	.	.	.	.	.	.	32C/	.	(>16c\	.	.	.	.	.	.	.	.	.	.	.	.	.	.	.	.	.	.	(>16b-\	.	(>16bb-\	.	.	.	(>16bb-\	.
.	.	.	.	.	.	.	.	.	.	.	32C/	.	.	.	.	.	.	.	.	.	.	.	.	.	.	.	.	.	.	.	.	.	.	.	.	.	.	.	.
.	.	.	.	.	.	.	.	.	.	.	32C/	.	16G\	.	.	.	.	.	.	.	.	.	.	.	.	.	.	.	.	.	.	16cc\	.	16ccc\	.	.	.	16ccc\	.
.	.	.	.	.	.	.	.	.	.	.	32C/	.	.	.	.	.	.	.	.	.	.	.	.	.	.	.	.	.	.	.	.	.	.	.	.	.	.	.	.
.	.	.	.	.	.	.	.	.	.	.	32C/	.	16E\JJ	.	.	.	.	.	.	.	.	.	.	.	.	.	.	.	.	.	.	16ee\JJ	.	16eee\JJ	.	.	.	16eee\JJ	.
.	.	.	.	.	.	.	.	.	.	.	32C/JJJ	.	.	.	.	.	.	.	.	.	.	.	.	.	.	.	.	.	.	.	.	.	.	.	.	.	.	.	.
*	*	*	*	*	*	*	*	*	*	*	*Xtremolo	*	*	*	*	*	*	*	*	*	*	*	*	*	*	*	*	*	*	*	*	*	*	*	*	*	*	*	*
*	*	*	*	*	*	*	*	*	*	*	*	*	*	*	*	*	*v	*v	*	*	*	*	*	*	*	*	*	*	*	*	*	*	*	*	*	*	*	*	*
=31	=31	=31	=31	=31	=31	=31	=31	=31	=31	=31	=31	=31	=31	=31	=31	=31	=31	=31	=31	=31	=31	=31	=31	=31	=31	=31	=31	=31	=31	=31	=31	=31	=31	=31	=31	=31	=31	=31
4c] 4C\]	4ee] 4b-] 4g\]	4C/	-ty!	.	4B-\	4g/	.	4ee\	-ty!	.	4C/	.	4C/)	.	4C/]	.	4e 4B-\	.	4cc/	4b-\	.	4g 4c/	.	4e/]	4e\]	.	4b-\]	.	4ee\	.	4gg\)	.	4ggg\)	.	4ee] 4g\]	.	4ggg\)	.
4r	4r	4r	.	.	4r	4r	.	4r	.	.	4r	.	4r	.	4r	.	4r	.	4r	4ryy	.	4r	.	4r	4ryy	.	4r	.	4r	.	4r	.	4r	.	4r	.	4r	.
4r	4r	4r	.	.	4r	4r	.	4r	.	.	4r	.	4r	.	4r	.	4r	.	4r	4ryy	.	4r	.	4r	4ryy	.	4r	.	4r	.	4r	.	4r	.	4r	.	4r	.
*	*	*	*	*	*	*	*	*	*	*	*	*	*	*	*	*	*	*	*v	*v	*	*	*	*v	*v	*	*	*	*	*	*	*	*	*	*	*	*	*
=32	=32	=32	=32	=32	=32	=32	=32	=32	=32	=32	=32	=32	=32	=32	=32	=32	=32	=32	=32	=32	=32	=32	=32	=32	=32	=32	=32	=32	=32	=32	=32	=32	=32	=32	=32	=32
*	*	*	*	*	*	*	*	*	*	*	*	*	*	*	*	*	*	*	*	*	*^	*	*	*	*	*	*	*	*	*	*	*	*	*	*	*
*	*	*	*	*	*	*	*	*	*	*	*tremolo	*	*	*	*	*	*	*	*	*	*	*	*	*	*	*	*	*	*	*	*	*	*	*	*	*	*
!	!	!	!	!	!	!	!	!	!	!	!	!	!	!	!	!	!	!	!	!	!	!	!	!	!	!	!	!	!LO:DY:b:Bi:t=%so:rj	!	!	!	!	!	!	!	!
8FL 8FF/	[>2.ff [>2.a [<2.f/	[>2.F\	Świę-	.	[>2.A\	[>2.f/	.	[>2.ff\	Świę-	.	32F\LLL	.	8F/L	.	[>2.F\	.	[>2.f [>2.A\	.	[>2.cc [>2.a/	.	[>2.f/	[>2.c\	.	[>2.fX [>2.A/	.	[<2.a/	.	[>2.ff\	ff	16r	.	16r	.	[>2.ff [>2.a\	.	(>16r	.
.	.	.	.	.	.	.	.	.	.	.	32F\	.	.	.	.	.	.	.	.	.	.	.	.	.	.	.	.	.	.	.	.	.	.	.	.	.	.
.	.	.	.	.	.	.	.	.	.	.	32F\	.	.	.	.	.	.	.	.	.	.	.	.	.	.	.	.	.	.	(>16ff\LL	.	(>16fff\LL	.	.	.	16fff\LL	.
.	.	.	.	.	.	.	.	.	.	.	32F\	.	.	.	.	.	.	.	.	.	.	.	.	.	.	.	.	.	.	.	.	.	.	.	.	.	.
16r	.	.	.	.	.	.	.	.	.	.	32F\	.	16r	.	.	.	.	.	.	.	.	.	.	.	.	.	.	.	.	16cc\	.	16ccc\	.	.	.	16ccc\	.
.	.	.	.	.	.	.	.	.	.	.	32F\	.	.	.	.	.	.	.	.	.	.	.	.	.	.	.	.	.	.	.	.	.	.	.	.	.	.
16FF/Jk	.	.	.	.	.	.	.	.	.	.	32F\	.	16FF/Jk	.	.	.	.	.	.	.	.	.	.	.	.	.	.	.	.	16a\JJ	.	16aa\JJ	.	.	.	16aa\JJ	.
.	.	.	.	.	.	.	.	.	.	.	32F\	.	.	.	.	.	.	.	.	.	.	.	.	.	.	.	.	.	.	.	.	.	.	.	.	.	.
4AA/	.	.	.	.	.	.	.	.	.	.	32F\	.	4AA/	.	.	.	.	.	.	.	.	.	.	.	.	.	.	.	.	16f/LL)	.	16ff\LL)	.	.	.	16ff\LL)	.
.	.	.	.	.	.	.	.	.	.	.	32F\	.	.	.	.	.	.	.	.	.	.	.	.	.	.	.	.	.	.	.	.	.	.	.	.	.	.
.	.	.	.	.	.	.	.	.	.	.	32F\	.	.	.	.	.	.	.	.	.	.	.	.	.	.	.	.	.	.	(<16cc/	.	(>16ccc\	.	.	.	(>16ccc\	.
.	.	.	.	.	.	.	.	.	.	.	32F\	.	.	.	.	.	.	.	.	.	.	.	.	.	.	.	.	.	.	.	.	.	.	.	.	.	.
.	.	.	.	.	.	.	.	.	.	.	32F\	.	.	.	.	.	.	.	.	.	.	.	.	.	.	.	.	.	.	16a/	.	16aa\	.	.	.	16aa\	.
.	.	.	.	.	.	.	.	.	.	.	32F\	.	.	.	.	.	.	.	.	.	.	.	.	.	.	.	.	.	.	.	.	.	.	.	.	.	.
.	.	.	.	.	.	.	.	.	.	.	32F\	.	.	.	.	.	.	.	.	.	.	.	.	.	.	.	.	.	.	16f/JJ	.	16ff\JJ	.	.	.	16ff\JJ	.
.	.	.	.	.	.	.	.	.	.	.	32F\	.	.	.	.	.	.	.	.	.	.	.	.	.	.	.	.	.	.	.	.	.	.	.	.	.	.
4C/	.	.	.	.	.	.	.	.	.	.	32F\	.	4C/	.	.	.	.	.	.	.	.	.	.	.	.	.	.	.	.	16c/LL)	.	16cc/LL)	.	.	.	16cc\LL)	.
.	.	.	.	.	.	.	.	.	.	.	32F\	.	.	.	.	.	.	.	.	.	.	.	.	.	.	.	.	.	.	.	.	.	.	.	.	.	.
.	.	.	.	.	.	.	.	.	.	.	32F\	.	.	.	.	.	.	.	.	.	.	.	.	.	.	.	.	.	.	(<16a/	.	(<16aa/	.	.	.	(>16aa\	.
.	.	.	.	.	.	.	.	.	.	.	32F\	.	.	.	.	.	.	.	.	.	.	.	.	.	.	.	.	.	.	.	.	.	.	.	.	.	.
.	.	.	.	.	.	.	.	.	.	.	32F\	.	.	.	.	.	.	.	.	.	.	.	.	.	.	.	.	.	.	16f/	.	16ff/	.	.	.	16ff\	.
.	.	.	.	.	.	.	.	.	.	.	32F\	.	.	.	.	.	.	.	.	.	.	.	.	.	.	.	.	.	.	.	.	.	.	.	.	.	.
.	.	.	.	.	.	.	.	.	.	.	32F\	.	.	.	.	.	.	.	.	.	.	.	.	.	.	.	.	.	.	16c/JJ	.	16cc/JJ	.	.	.	16cc\JJ	.
.	.	.	.	.	.	.	.	.	.	.	32F\JJJ	.	.	.	.	.	.	.	.	.	.	.	.	.	.	.	.	.	.	.	.	.	.	.	.	.	.
*	*	*	*	*	*	*	*	*	*	*	*Xtremolo	*	*	*	*	*	*	*	*	*	*	*	*	*	*	*	*	*	*	*	*	*	*	*	*	*	*
=33	=33	=33	=33	=33	=33	=33	=33	=33	=33	=33	=33	=33	=33	=33	=33	=33	=33	=33	=33	=33	=33	=33	=33	=33	=33	=33	=33	=33	=33	=33	=33	=33	=33	=33	=33	=33	=33
*	*	*	*	*	*	*	*	*	*	*	*tremolo	*	*	*	*	*	*	*	*	*	*	*	*	*	*	*	*	*	*	*	*	*	*	*	*	*	*
!	!	!	!	!	!	!	!	!	!	!	!	!	!	!	!	!	!	!	!	!	!	!	!	!	!	!LO:TX:a:t=P:w źródle przerwana kontunuacja ligatury:problem	!	!LO:TX:a:t=P:w źródle przerwana kontunuacja ligatury:problem	!	!	!	!	!	!	!	!	!
!	!	!	!	!	!	!	!	!	!	!	!	!	!	!	!	!	!	!	!	!	!	!	!	!	!	!	!	!	!	!	!	!LO:TX:t=P:problem:mixed beam	!	!	!	!	!
8F\	2.ff] 2.a] 2.f/]	2.F\]	.	.	2.A\]	2.f/]	.	2.ff\]	.	.	32F\LLL	.	8F\L	.	2.F\]	.	2.f] 2.A\]	.	2.cc] 2.a/]	.	2.f/]	2.c\]	.	2.f] 2.A/]	.	2.a/_>	.	2.ff\_>	.	16A/LL)	.	16a/LL)	.	2.ff] 2.a\]	.	16a\LL)	.
.	.	.	.	.	.	.	.	.	.	.	32F\	.	.	.	.	.	.	.	.	.	.	.	.	.	.	.	.	.	.	.	.	.	.	.	.	.	.
.	.	.	.	.	.	.	.	.	.	.	32F\	.	.	.	.	.	.	.	.	.	.	.	.	.	.	.	.	.	.	(<16cc/	.	(>16ccc\	.	.	.	(>16ccc\	.
.	.	.	.	.	.	.	.	.	.	.	32F\	.	.	.	.	.	.	.	.	.	.	.	.	.	.	.	.	.	.	.	.	.	.	.	.	.	.
16r	.	.	.	.	.	.	.	.	.	.	32F\	.	16r	.	.	.	.	.	.	.	.	.	.	.	.	.	.	.	.	16a/	.	16aa\	.	.	.	16aa\	.
.	.	.	.	.	.	.	.	.	.	.	32F\	.	.	.	.	.	.	.	.	.	.	.	.	.	.	.	.	.	.	.	.	.	.	.	.	.	.
16F 16FF/	.	.	.	.	.	.	.	.	.	.	32F\	.	16FJk 16FF\	.	.	.	.	.	.	.	.	.	.	.	.	.	.	.	.	16f/JJ	.	16ff\JJ	.	.	.	16ff\JJ	.
.	.	.	.	.	.	.	.	.	.	.	32F\	.	.	.	.	.	.	.	.	.	.	.	.	.	.	.	.	.	.	.	.	.	.	.	.	.	.
4A 4AA\	.	.	.	.	.	.	.	.	.	.	32F\	.	4A 4AA\	.	.	.	.	.	.	.	.	.	.	.	.	.	.	.	.	16c/LL)	.	16cc/LL)	.	.	.	16cc\LL)	.
.	.	.	.	.	.	.	.	.	.	.	32F\	.	.	.	.	.	.	.	.	.	.	.	.	.	.	.	.	.	.	.	.	.	.	.	.	.	.
.	.	.	.	.	.	.	.	.	.	.	32F\	.	.	.	.	.	.	.	.	.	.	.	.	.	.	.	.	.	.	(<16a/	.	(<16aa/	.	.	.	(>16aa\	.
.	.	.	.	.	.	.	.	.	.	.	32F\	.	.	.	.	.	.	.	.	.	.	.	.	.	.	.	.	.	.	.	.	.	.	.	.	.	.
.	.	.	.	.	.	.	.	.	.	.	32F\	.	.	.	.	.	.	.	.	.	.	.	.	.	.	.	.	.	.	16f/	.	16ff/	.	.	.	16ff\	.
.	.	.	.	.	.	.	.	.	.	.	32F\	.	.	.	.	.	.	.	.	.	.	.	.	.	.	.	.	.	.	.	.	.	.	.	.	.	.
.	.	.	.	.	.	.	.	.	.	.	32F\	.	.	.	.	.	.	.	.	.	.	.	.	.	.	.	.	.	.	16c/JJ	.	16cc/JJ	.	.	.	16cc\JJ	.
.	.	.	.	.	.	.	.	.	.	.	32F\	.	.	.	.	.	.	.	.	.	.	.	.	.	.	.	.	.	.	.	.	.	.	.	.	.	.
4c 4C\	.	.	.	.	.	.	.	.	.	.	32F\	.	4c 4C\	.	.	.	.	.	.	.	.	.	.	.	.	.	.	.	.	16A/LL)	.	16a/LL)	.	.	.	16a\LL)	.
.	.	.	.	.	.	.	.	.	.	.	32F\	.	.	.	.	.	.	.	.	.	.	.	.	.	.	.	.	.	.	.	.	.	.	.	.	.	.
.	.	.	.	.	.	.	.	.	.	.	32F\	.	.	.	.	.	.	.	.	.	.	.	.	.	.	.	.	.	.	(<16f/	.	(<16ff/	.	.	.	(>16ff\	.
.	.	.	.	.	.	.	.	.	.	.	32F\	.	.	.	.	.	.	.	.	.	.	.	.	.	.	.	.	.	.	.	.	.	.	.	.	.	.
.	.	.	.	.	.	.	.	.	.	.	32F\	.	.	.	.	.	.	.	.	.	.	.	.	.	.	.	.	.	.	16c/	.	16cc/	.	.	.	16cc\	.
.	.	.	.	.	.	.	.	.	.	.	32F\	.	.	.	.	.	.	.	.	.	.	.	.	.	.	.	.	.	.	.	.	.	.	.	.	.	.
.	.	.	.	.	.	.	.	.	.	.	32F\	.	.	.	.	.	.	.	.	.	.	.	.	.	.	.	.	.	.	16A/JJ	.	16a/JJ	.	.	.	16a\JJ	.
.	.	.	.	.	.	.	.	.	.	.	32F\JJJ	.	.	.	.	.	.	.	.	.	.	.	.	.	.	.	.	.	.	.	.	.	.	.	.	.	.
*	*	*	*	*	*	*	*	*	*	*	*Xtremolo	*	*	*	*	*	*	*	*	*	*	*	*	*	*	*	*	*	*	*	*	*	*	*	*	*	*
!!LO:PB:g=original
*	*	*	*	*	*	*	*	*	*	*	*	*	*	*	*	*	*	*	*	*	*v	*v	*	*	*	*	*	*	*	*	*	*	*	*	*	*	*
=34	=34	=34	=34	=34	=34	=34	=34	=34	=34	=34	=34	=34	=34	=34	=34	=34	=34	=34	=34	=34	=34	=34	=34	=34	=34	=34	=34	=34	=34	=34	=34	=34	=34	=34	=34	=34
*	*	*	*	*	*	*	*	*	*	*	*	*	*	*	*	*	*	*	*^	*	*	*	*	*	*	*	*	*	*	*	*	*	*	*	*	*
!	!	!	!	!	!	!	!	!	!	!	!	!	!	!	!	!	!	!	!	!	!	!	!	!	!	!	!	!	!	!LO:TX:a:t=P:w źródle brak zakończenia łuku:problem	!	!LO:TX:a:t=P:w źródle brak zakończenia łuku:problem	!	!	!	!LO:TX:a:t=P:w źródle brak zakończenia łuku:problem	!
4.F 4.FF/	4.ff 4.a 4.f/	8F\	-ty!	.	8A\	8f/	.	8ff\	-ty!	.	8F\	.	8F 8FF/	.	8F\	.	8f 8A\	.	8cc/	8a\	.	8f 8c/	.	8fX 8A/	.	8a/]	.	8ff\]	.	8F/)	.	8f/)	.	8ff 8a\	.	8f/)	.
.	.	8r	.	.	8r	8r	.	8r	.	.	8r	.	8r	.	8r	.	8r	.	8r	8ryy	.	8r	.	8r	.	8r	.	8r	.	8r	.	8r	.	8r	.	8r	.
!	!	!	!	!	!	!	!	!	!	!	!	!	!	!	!	!	!	!LO:DY:b:rj	!	!	!	!	!	!	!LO:DY:b:rj	!	!	!	!	!	!	!	!LO:DY:b:rj	!	!	!	!LO:DY:b:rj
.	.	4r	.	.	4r	4r	.	4r	.	.	8F\	.	8F 8FF/	.	8F\	.	8f 8A^<\	f	8ff 8a\	8ryy	.	8f 8c^</	.	8f 8A/	f	8a^>/	.	8ff^>\	.	8ff^>\	.	8ff\	f	8ff 8a\	.	8fff^<\	f
8r	8r	.	.	.	.	.	.	.	.	.	8r	.	8r	.	8r	.	8r	.	8r	8ryy	.	8r	.	8r	.	8r	.	8r	.	8r	.	8r	.	8r	.	8r	.
4r	4r	4r	.	.	4r	4r	.	4r	.	.	4r	.	4r	.	4r	.	4r	.	4r	4ryy	.	4r	.	4r	.	4r	.	4r	.	4r	.	4r	.	4r	.	4r	.
*	*	*	*	*	*	*	*	*	*	*	*	*	*	*	*	*	*	*	*v	*v	*	*	*	*	*	*	*	*	*	*	*	*	*	*	*	*	*
==	==	==	==	==	==	==	==	==	==	==	==	==	==	==	==	==	==	==	==	==	==	==	==	==	==	==	==	==	==	==	==	==	==	==	==	==
*-	*-	*-	*-	*-	*-	*-	*-	*-	*-	*-	*-	*-	*-	*-	*-	*-	*-	*-	*-	*-	*-	*-	*-	*-	*-	*-	*-	*-	*-	*-	*-	*-	*-	*-	*-	*-
!!title: @{OTL};
!!!RDF**kern: > = above
!!!RDF**kern: < = below
!!!RDF**kern: N = linked
!!!RDF**kern: i = editorial accidental
!!!EED: Wojciech Jakubiak-Danek
!!!EST: 2021-04-28
!!!URL-scan: http://repozytorium.nifc.pl/skany/pl-wtm-nut--r1543
!!!ONB-nifc: UWAGA: części Mszy: 1. Kyrie, 2. Gloria, 3. Graduale, 4. Credo, 5. Offertorium, 6. Sanctus, 7. Agnus Dei, 8. Dona nobis
!!!AIN: 1 alto 1 bass 4 clars 2 cor 2 empty 1 fagot 1 flt 1 oboe 1 serp 1 soprn 1 tenor 1 timpa 1 tromp
!!!ENC: Krzysztof Stępień
!!!END: 2021-04-08
!!!RDF**kern: | = vertical stroke
